!!!!SEGMENT: pl-wumfc--n2100--010_dobrzynski-ignacy-feliks--monbar-czyli-flibustierowie-partytura-fortepianowa-akt-ii-9-recitativo-terzettino-ed-arietta.krn
!!!cenid: 18xx:4193
!!!COM: Dobrzyński, Ignacy Feliks
!!!COM-rismID: pe30020642
!!!CDT: 1807/02/15-1867/10/09
!!!CNT: Polish
!!!OPR: Monbar czyli Flibustierowie - partytura fortepianowa
!!!OTL: Akt II - 9. Recitativo terzettino ed arietta
!!!OMV: 010
!!!PDT: 1863
!!!AGN:
!!!SMS-siglum: PL-Wumfc
!!!SMS-shelfmark: N2100
!!!SMS-shelfwork: 001-010 M
!!!SMS-variant:
!!!SMS-altvar:
!!!NIFC-rismSourceID: 1001123412
!!!NIFC-rismChildID: 1001123412
!!!NIFC-islandoraID: pl-wumfc:1659
!!!URL-pdf-islandora: https://repozytorium.nifc.pl/islandora/object/pl-wumfc%3A1659/datastream/PDF/view
!!!URL-scan: https://polish.musicsources.pl/pl/lokalizacje/galeria/druki-muzyczne/11863/85 @EN{Scan on Polish Music Sources Website} @PL{Skany w portalu Dziedzictwo Muzyki Polskiej w otwartym dostępie}
!!!IIIF:
!!!ONB-nifc: Skany 0085-0089
!!!OMD: Recitativo.
!!!AIN: 1 piano 3 vox
!!!key: C
**kern	**kern	**dynam	**kern	**text	**kern	**text	**text	**dynam	**kern	**text	**dynam
*part4	*part4	*part4	*part3	*part3	*part2	*part2	*part2	*part2	*part1	*part1	*part1
*staff5	*staff4	*	*staff3	*staff3	*staff2	*staff2	*staff2	*	*staff1	*staff1	*
*>[A,B,B1,B,B2,C]	*>[A,B,B1,B,B2,C]	*	*>[A,B,B1,B,B2,C]	*	*>[A,B,B1,B,B2,C]	*	*	*	*>[A,B,B1,B,B2,C]	*	*
*>A	*>A	*	*>A	*	*>A	*	*	*	*>A	*	*
*I"PIANO.	*I"PIANO.	*	*I"	*	*I"	*	*	*	*I"MONBAR.	*	*
*	*I'	*	*I'	*	*I'	*	*	*	*I'	*	*
*Ipiano	*Ipiano	*	*Ivox	*	*Ivox	*	*	*	*Ivox	*	*
*ICklav	*ICklav	*	*ICvox	*	*ICvox	*	*	*	*ICvox	*	*
*IGacmp	*IGacmp	*	*	*	*	*	*	*	*	*	*
*clefF4	*clefG2	*	*clefF4	*	*clefG2	*	*	*	*clefG2	*	*
*	*	*	*	*	*	*	*	*	*ITrd8c12	*	*
*k[]	*k[]	*	*k[]	*	*k[]	*	*	*	*k[]	*	*
*C:	*C:	*	*C:	*	*C:	*	*	*	*C:	*	*
*M4/4	*M4/4	*	*M4/4	*	*M4/4	*	*	*	*M4/4	*	*
*met(c)	*met(c)	*	*met(c)	*	*met(c)	*	*	*	*met(c)	*	*
=1	=1	=1	=1	=1	=1	=1	=1	=1	=1	=1	=1
*tremolo	*tremolo	*	*	*	*	*	*	*	*	*	*
!	!	!	!	!	!	!	!	!	!LO:TX:a:t=(MONBAR do ROZALJI)	!	!
!	!	!	!	!	!	!	!	!	!LO:TX:t=P:problem=głosy męskie zapisane bez przenośnika oktawowego	!	!
32FF/LLL	32cLLL 32A/	f	1ryy	.	1ryy	.	.	.	4r	.	.
32F/	32f/	.	.	.	.	.	.	.	.	.	.
32FF/	32c 32A/	.	.	.	.	.	.	.	.	.	.
32F/	32f/	.	.	.	.	.	.	.	.	.	.
32FF/	32c 32A/	.	.	.	.	.	.	.	.	.	.
32F/	32f/	.	.	.	.	.	.	.	.	.	.
32FF/	32c 32A/	.	.	.	.	.	.	.	.	.	.
32F/	32f/	.	.	.	.	.	.	.	.	.	.
32FF/	32c 32A/	.	.	.	.	.	.	.	8r	.	.
32F/	32f/	.	.	.	.	.	.	.	.	.	.
32FF/	32c 32A/	.	.	.	.	.	.	.	.	.	.
32F/	32f/	.	.	.	.	.	.	.	.	.	.
32FF/	32c 32A/	.	.	.	.	.	.	.	8c\	Ni-	.
32F/	32f/	.	.	.	.	.	.	.	.	.	.
32FF/	32c 32A/	.	.	.	.	.	.	.	.	.	.
32F/JJJ	32f/JJJ	.	.	.	.	.	.	.	.	.	.
32FF/LLL	32cLLL 32A/	.	.	.	.	.	.	.	4g\	-kcze-	.
32F/	32f/	.	.	.	.	.	.	.	.	.	.
32FF/	32c 32A/	.	.	.	.	.	.	.	.	.	.
32F/	32f/	.	.	.	.	.	.	.	.	.	.
32FF/	32c 32A/	.	.	.	.	.	.	.	.	.	.
32F/	32f/	.	.	.	.	.	.	.	.	.	.
32FF/	32c 32A/	.	.	.	.	.	.	.	.	.	.
32F/	32f/	.	.	.	.	.	.	.	.	.	.
32FF/	32c 32A/	.	.	.	.	.	.	.	8f\	-mna	.
32F/	32f/	.	.	.	.	.	.	.	.	.	.
32FF/	32c 32A/	.	.	.	.	.	.	.	.	.	.
32F/	32f/	.	.	.	.	.	.	.	.	.	.
32FF/	32c 32A/	.	.	.	.	.	.	.	8r	.	.
32F/	32f/	.	.	.	.	.	.	.	.	.	.
32FF/	32c 32A/	.	.	.	.	.	.	.	.	.	.
32F/JJJ	32f/JJJ	.	.	.	.	.	.	.	.	.	.
*Xtremolo	*Xtremolo	*	*	*	*	*	*	*	*	*	*
=2	=2	=2	=2	=2	=2	=2	=2	=2	=2	=2	=2
4FF/	4f 4c 4A/	.	1ryy	.	1ryy	.	.	.	8f\	ja-	.
.	.	.	.	.	.	.	.	.	16c\	-każ	.
.	.	.	.	.	.	.	.	.	16c\	cię	.
4r	4r	.	.	.	.	.	.	.	4c\	myśl	.
2r	2r	.	.	.	.	.	.	.	8.c\	tu	.
.	.	.	.	.	.	.	.	.	16B-X\	spro-	.
.	.	.	.	.	.	.	.	.	8B-\	-wa-	.
.	.	.	.	.	.	.	.	.	16A/	-dza	.
.	.	.	.	.	.	.	.	.	16r	.	.
!!LO:LB:g=original
=3	=3	=3	=3	=3	=3	=3	=3	=3	=3	=3	=3
1r	1r	.	1ryy	.	1ryy	.	.	.	16A/	smia-	.
.	.	.	.	.	.	.	.	.	16A/	-łaż-	<
.	.	.	.	.	.	.	.	.	16A/	-byś	.
.	.	.	.	.	.	.	.	.	16B-X\	mym	.
.	.	.	.	.	.	.	.	.	8.d\	pla-	[
.	.	.	.	.	.	.	.	.	16c\	-nom	.
.	.	.	.	.	.	.	.	.	8c\	sta-	<
.	.	.	.	.	.	.	.	.	16c\	-wiać	.
.	.	.	.	.	.	.	.	.	16d\	za-	.
.	.	.	.	.	.	.	.	.	8f\	-wa-	[
.	.	.	.	.	.	.	.	.	16e-X\	-dy	.
.	.	.	.	.	.	.	.	.	16r	.	.
=4	=4	=4	=4	=4	=4	=4	=4	=4	=4	=4	=4
4r	4r	.	1ryy	.	1ryy	.	.	.	8d\	Cóż	.
.	.	.	.	.	.	.	.	.	8B-X\	to?	.
4BB-X 4BBB-X/	4bb-X 4ff 4dd 4b-X\	ff	.	.	.	.	.	.	8.r	.	.
.	.	.	.	.	.	.	.	.	16B-\	ty	.
2r	2r	.	.	.	.	.	.	.	8B-\	nie	.
.	.	.	.	.	.	.	.	.	8B-\	wiész	.
.	.	.	.	.	.	.	.	.	16B-\	ja-	.
.	.	.	.	.	.	.	.	.	16B-\	-ką	.
.	.	.	.	.	.	.	.	.	16B-\	jest	.
.	.	.	.	.	.	.	.	.	16B-\	ma	.
!!LO:LB:g=original
=5	=5	=5	=5	=5	=5	=5	=5	=5	=5	=5	=5
4r	4r	.	1ryy	.	1ryy	.	.	.	4g^\	wła-	.
8.r	8.r	.	.	.	.	.	.	.	8e-X\	-dza	.
.	.	.	.	.	.	.	.	.	8r	.	.
!	!	!LO:DY:rj	!	!	!	!	!	!	!	!	!
16E-X 16EE-X\	16e-X 16B-X< 16G</	f	.	.	.	.	.	.	.	.	.
4E- 4EE-\	4e- 4B-< 4G</	.	.	.	.	.	.	.	4e-\	Drzyj	f
4r	4r	.	.	.	.	.	.	.	8e-\	je-	.
.	.	.	.	.	.	.	.	.	8d\	-śli	.
=6	=6	=6	=6	=6	=6	=6	=6	=6	=6	=6	=6
!	!	!LO:DY:rj	!	!	!	!	!	!	!	!	!
[2E-X [2EE-X\	[2B-X< [2G</	fz >	1ryy	.	1ryy	.	.	.	4d\	zaz-	>
.	.	.	.	.	.	.	.	.	8c#X\	-drość	.
.	.	.	.	.	.	.	.	.	8B-X\	na-	.
(2E-] (2EE-\]	(2c#X 2B-<] (2G</]	]	.	.	.	.	.	.	4B-\	-tchnę-	.
.	.	.	.	.	.	.	.	.	8A/	-ła	.
.	.	.	.	.	.	.	.	.	8G/	myśl	]
=7	=7	=7	=7	=7	=7	=7	=7	=7	=7	=7	=7
4D 4DD\))	4d 4F#X</))	.	1ryy	.	1ryy	.	.	.	4d\	zdra-	.
4D 4DD/	4ddd 4aa 4ff#X 4dd\	sf	.	.	.	.	.	.	4D/	-dy	.
2r	2r	.	.	.	.	.	.	.	8r	.	.
!	!	!	!	!	!	!	!	!	!	!	!LO:DY:a
.	.	.	.	.	.	.	.	.	8f#X\	precz	f
.	.	.	.	.	.	.	.	.	8d\	ztąd!	.
.	.	.	.	.	.	.	.	.	8r	.	.
*	*	*	*	*	*	*	*	*	*clefG2	*	*
=8	=8	=8	=8	=8	=8	=8	=8	=8	=8	=8	=8
*	*	*	*	*	*	*	*	*	*ITrd0c0	*	*
!	!	!	!	!	!	!	!	!	!LO:TX:a:t=ROZALIA.	!	!
1r	1r	.	1ryy	.	1ryy	.	.	.	8r	.	.
.	.	.	.	.	.	.	.	.	8a/	Od-	.
.	.	.	.	.	.	.	.	.	4a/	-cho-	.
.	.	.	.	.	.	.	.	.	4d/	-dzę	.
.	.	.	.	.	.	.	.	.	8r	.	.
.	.	.	.	.	.	.	.	.	8a/	lecz	.
!!LO:LB:g=original
=9	=9	=9	=9	=9	=9	=9	=9	=9	=9	=9	=9
2r	2r	.	1ryy	.	1ryy	.	.	.	4dd\	po-	.
.	.	.	.	.	.	.	.	.	8dd\	-mnij	.
.	.	.	.	.	.	.	.	.	8een\	Mon-	.
[2F#X\	[2a [>2d [2c/	.	.	.	.	.	.	.	4dd\	-ba-	.
.	.	.	.	.	.	.	.	.	8cc\	-rze	.
.	.	.	.	.	.	.	.	.	8cc\	żeś	.
=10	=10	=10	=10	=10	=10	=10	=10	=10	=10	=10	=10
1F#]	1a] 1d] 1c]	.	1ryy	.	1ryy	.	.	.	8cc\	zra-	.
.	.	.	.	.	.	.	.	.	8cc\	-nił	.
.	.	.	.	.	.	.	.	.	8cc\	ser-	.
.	.	.	.	.	.	.	.	.	8cc\	-ce	.
.	.	.	.	.	.	.	.	.	8cc\	któ-	.
.	.	.	.	.	.	.	.	.	8cc\	-re	.
.	.	.	.	.	.	.	.	.	8b\	nie	.
.	.	.	.	.	.	.	.	.	8a/	zna	.
=11	=11	=11	=11	=11	=11	=11	=11	=11	=11	=11	=11
4G\	4g 4d 4B/	.	1ryy	.	1ryy	.	.	.	4cc\	.	.
!	!	!	!	!	!	!	!	!	!LO:TX:t=P:problem=fragment nieczytelny	!	!
4G 4GG/	4gg 4dd 4b 4g\	sf	.	.	.	.	.	.	4ryy	.	.
*tremolo	*tremolo	*	*	*	*	*	*	*	*	*	*
!	!LO:TX:a:i:t=trem&colon;	!	!	!	!	!	!	!	!	!	!
32E-XLLL 32EE-X/	32gLLL 32e-X 32B-X/	.	.	.	.	.	.	.	4gg\	Drzyj!	.
32E- 32EE-/	32g 32e- 32B-/	.	.	.	.	.	.	.	.	.	.
32E- 32EE-/	32g 32e- 32B-/	.	.	.	.	.	.	.	.	.	.
32E- 32EE-/	32g 32e- 32B-/	.	.	.	.	.	.	.	.	.	.
32E- 32EE-/	32g 32e- 32B-/	.	.	.	.	.	.	.	.	.	.
32E- 32EE-/	32g 32e- 32B-/	.	.	.	.	.	.	.	.	.	.
32E- 32EE-/	32g 32e- 32B-/	.	.	.	.	.	.	.	.	.	.
32E- 32EE-/	32g 32e- 32B-/	.	.	.	.	.	.	.	.	.	.
32E- 32EE-/	32g 32e- 32B-/	.	.	.	.	.	.	.	8g/	sam	.
32E- 32EE-/	32g 32e- 32B-/	.	.	.	.	.	.	.	.	.	.
32E- 32EE-/	32g 32e- 32B-/	.	.	.	.	.	.	.	.	.	.
32E- 32EE-/	32g 32e- 32B-/	.	.	.	.	.	.	.	.	.	.
32E- 32EE-/	32g 32e- 32B-/	.	.	.	.	.	.	.	8g/	bo	.
32E- 32EE-/	32g 32e- 32B-/	.	.	.	.	.	.	.	.	.	.
32E- 32EE-/	32g 32e- 32B-/	.	.	.	.	.	.	.	.	.	.
32E-JJJ 32EE-/	32gJJJ 32e- 32B-/	.	.	.	.	.	.	.	.	.	.
*Xtremolo	*Xtremolo	*	*	*	*	*	*	*	*	*	*
=12	=12	=12	=12	=12	=12	=12	=12	=12	=12	=12	=12
[2E-X [2EE-X/	[2g [>2c#X [2B-X/	.	1ryy	.	1ryy	.	.	.	4.g/	sro-	.
.	.	.	.	.	.	.	.	.	8g/	-żéj	.
4E-] 4EE-/]	4g] 4c#] 4B-/]	.	.	.	.	.	.	.	8g/	czę-	.
.	.	.	.	.	.	.	.	.	8g/	-sto	.
4r	4r	.	.	.	.	.	.	.	8f#X/	mi-	.
.	.	.	.	.	.	.	.	.	8g/	-łość	.
!!LO:LB:g=original
=13	=13	=13	=13	=13	=13	=13	=13	=13	=13	=13	=13
2r	2r	.	1ryy	.	1ryy	.	.	.	4g/	ka-	.
.	.	.	.	.	.	.	.	.	4d/	-rze	.
4D 4DD/	4ddd 4aa 4ff#X 4dd\	sf	.	.	.	.	.	.	4r	.	.
*	*	*	*	*	*	*	*	*	*clefG2	*	*
=-	=-	=-	=-	=-	=-	=-	=-	=-	=-	=-	=-
*	*	*	*	*	*	*	*	*	*ITrd8c12	*	*
!	!	!	!	!	!	!	!	!	!LO:TX:a:t=MONBAR.	!	!
4r	4r	.	.	.	.	.	.	.	8r	.	.
.	.	.	.	.	.	.	.	.	8A/	Śmiesz	.
=14	=14	=14	=14	=14	=14	=14	=14	=14	=14	=14	=14
4r	4r	.	1ryy	.	1ryy	.	.	.	8e\	gro-	.
.	.	.	.	.	.	.	.	.	8d\	-zić	.
*tremolo	*tremolo	*	*	*	*	*	*	*	*	*	*
!	!	!LO:DY:rj	!	!	!	!	!	!	!	!	!
32DLLL 32DD/	32f#XLLL 32d 32A/	ff	.	.	.	.	.	.	4r	.	.
32D 32DD/	32f# 32d 32A/	.	.	.	.	.	.	.	.	.	.
32D 32DD/	32f# 32d 32A/	.	.	.	.	.	.	.	.	.	.
32D 32DD/	32f# 32d 32A/	.	.	.	.	.	.	.	.	.	.
32D 32DD/	32f# 32d 32A/	.	.	.	.	.	.	.	.	.	.
32D 32DD/	32f# 32d 32A/	.	.	.	.	.	.	.	.	.	.
32D 32DD/	32f# 32d 32A/	.	.	.	.	.	.	.	.	.	.
32DJJJ 32DD/	32f#JJJ 32d 32A/	.	.	.	.	.	.	.	.	.	.
*Xtremolo	*Xtremolo	*	*	*	*	*	*	*	*	*	*
4D 4DD/	4f# 4d 4A/	.	.	.	.	.	.	.	8f#X\	ho-	.
.	.	.	.	.	.	.	.	.	8d\	-la!	.
4r	4r	.	.	.	.	.	.	.	4r	.	.
*	*	*	*	*	*	*	*	*	*clefG2	*	*
=15	=15	=15	=15	=15	=15	=15	=15	=15	=15	=15	=15
*	*	*	*	*	*	*	*	*	*ITrd0c0	*	*
!	!	!	!	!	!	!	!	!	!LO:TX:a:t=D. MARIA (błagalnie)	!	!
1r	1r	.	1ryy	.	1ryy	.	.	.	4ff#X\	Prze-	.
.	.	.	.	.	.	.	.	.	8ee\	-bacz	.
.	.	.	.	.	.	.	.	.	8dd\	jéj,	.
.	.	.	.	.	.	.	.	.	4dd\	prze-	.
.	.	.	.	.	.	.	.	.	8cc\	-bacz	.
.	.	.	.	.	.	.	.	.	8r	.	.
=16	=16	=16	=16	=16	=16	=16	=16	=16	=16	=16	=16
2r	2r	.	1ryy	.	1ryy	.	.	.	8cc\	je-	.
.	.	.	.	.	.	.	.	.	8cc\	-śli	.
.	.	.	.	.	.	.	.	.	8cc\	głos	.
.	.	.	.	.	.	.	.	.	8a/	mój	.
!	!	!	!	!	!	!	!	!	!LO:TX:a:t=(ROZALIA odchodzi)	!	!
4E-X;<\	2c 2A<;/	.	.	.	.	.	.	.	4g;/	dro-	.
.	.	.	.	.	.	.	.	.	16qqf#X/LL	.	.
.	.	.	.	.	.	.	.	.	16qqa/	.	.
.	.	.	.	.	.	.	.	.	16qqg/JJ	.	.
4D;\	.	.	.	.	.	.	.	.	4f#;/	-gi.	.
!!LO:PB:g=original
=17|!	=17|!	=17|!	=17|!	=17|!	=17|!	=17|!	=17|!	=17|!	=17|!	=17|!	=17|!
!!!OMD: Allegro moderato.
*	*	*	*	*	*	*	*	*	*ITrd8c12	*	*
*k[f#]	*k[f#]	*	*k[f#]	*	*k[f#]	*	*	*	*k[f#]	*	*
*M4/4	*M4/4	*	*M4/4	*	*M4/4	*	*	*	*M4/4	*	*
*met(c)	*met(c)	*	*met(c)	*	*met(c)	*	*	*	*met(c)	*	*
8GG\L	16r	p	1ryy	.	1ryy	.	.	.	2r	.	.
.	16d/LL	.	.	.	.	.	.	.	.	.	.
8BJ 8G 8D\	16e/	.	.	.	.	.	.	.	.	.	.
.	16f#/JJ	.	.	.	.	.	.	.	.	.	.
*tremolo	*	*	*	*	*	*	*	*	*	*	*
8BL 8G 8D\	16g/LL	.	.	.	.	.	.	.	.	.	.
.	16g/	.	.	.	.	.	.	.	.	.	.
8B 8G 8D\	16g/	.	.	.	.	.	.	.	.	.	.
.	16g/JJ	.	.	.	.	.	.	.	.	.	.
!	!	!	!	!	!	!	!	!	!	!	!LO:DY:b:rj
8B 8G 8D\	(16g/LL	.	.	.	.	.	.	.	4B\	Ah!	p
.	16a/	.	.	.	.	.	.	.	.	.	.
8B 8G 8D\	16b/	.	.	.	.	.	.	.	.	.	.
.	16f#/JJ)	.	.	.	.	.	.	.	.	.	.
8B 8G 8D\	(16a/LL	.	.	.	.	.	.	.	8B\	ta	.
.	16g/	.	.	.	.	.	.	.	.	.	.
8BJ 8G 8D\	16f#/	.	.	.	.	.	.	.	8B\	o-	.
.	16e/JJ)	.	.	.	.	.	.	.	.	.	.
*Xtremolo	*	*	*	*	*	*	*	*	*	*	*
=18	=18	=18	=18	=18	=18	=18	=18	=18	=18	=18	=18
8GG\L	16r	.	1ryy	.	1ryy	.	.	.	4d\	-fia-	.
.	16d/LL	.	.	.	.	.	.	.	.	.	.
8BJ 8G 8D\	16e/	.	.	.	.	.	.	.	.	.	.
.	16f#/JJ	.	.	.	.	.	.	.	.	.	.
*tremolo	*	*	*	*	*	*	*	*	*	*	*
8BL 8G 8D\	16g/LL	.	.	.	.	.	.	.	8G/	-ra	.
.	16g/	.	.	.	.	.	.	.	.	.	.
8B 8G 8D\	16g/	.	.	.	.	.	.	.	8d\	nie	.
.	16g/JJ	.	.	.	.	.	.	.	.	.	.
8B 8G 8D\	(16g/LL	.	.	.	.	.	.	.	8d\	ła-	.
.	16a/	.	.	.	.	.	.	.	.	.	.
8B 8G 8D\	16b/	.	.	.	.	.	.	.	8d\	-twa	.
.	16f#/JJ)	.	.	.	.	.	.	.	.	.	.
.	(8qa/	.	.	.	.	.	.	.	.	.	.
8B 8G 8D\	(16g/LL)	.	.	.	.	.	.	.	8d\	ser-	.
.	16f#/	.	.	.	.	.	.	.	.	.	.
8BJ 8G 8D\	16g/	.	.	.	.	.	.	.	16d\	-cu	.
.	16b/JJ)	.	.	.	.	.	.	.	16d\	Mon-	.
*Xtremolo	*	*	*	*	*	*	*	*	*	*	*
!!LO:LB:g=original
=19	=19	=19	=19	=19	=19	=19	=19	=19	=19	=19	=19
8FF#\L	(4ee^\	.	1ryy	.	1ryy	.	.	.	4e\	-ba-	.
8cJ 8A 8D\	.	.	.	.	.	.	.	.	.	.	.
8cL 8A 8D\	16dd\LL)	.	.	.	.	.	.	.	8d\	-ra	.
.	(16a\	.	.	.	.	.	.	.	.	.	.
8cJ 8A 8D\	16g#X\	.	.	.	.	.	.	.	16G#X/	lecz	.
.	16a\JJ)	.	.	.	.	.	.	.	16A/	mi	.
8GG\L	(4cc^\	.	.	.	.	.	.	.	4c\	pra-	.
8BJ 8G 8D\	.	.	.	.	.	.	.	.	.	.	.
8BL 8G 8D\	16b/LL)	.	.	.	.	.	.	.	4B\	-wem	.
.	(16f#/	.	.	.	.	.	.	.	.	.	.
8BJ 8G 8D\	16gn/	.	.	.	.	.	.	.	.	.	.
.	16b/JJ)	.	.	.	.	.	.	.	.	.	.
=20	=20	=20	=20	=20	=20	=20	=20	=20	=20	=20	=20
8FF#\L	(16b\LL	.	1ryy	.	1ryy	.	.	.	8c#X\	two-	.
.	16a#X\)	.	.	.	.	.	.	.	.	.	.
8eJ 8c#X 8F#\	16a#\	.	.	.	.	.	.	.	8c#\	-je	.
.	16a#\JJ	.	.	.	.	.	.	.	.	.	.
8eL 8c# 8F#\	(16a#\LL	.	.	.	.	.	.	.	4f#\	sło-	.
.	16ff#\)	.	.	.	.	.	.	.	.	.	.
8eJ 8c# 8F#\	16ff#\	.	.	.	.	.	.	.	.	.	.
.	16ff#\JJ	.	.	.	.	.	.	.	.	.	.
8d 8B\	(16b\LL	.	.	.	.	.	.	.	8B\	-wo	.
.	16ddd\	>	.	.	.	.	.	.	.	.	.
8r	16ccc\	.	.	.	.	.	.	.	8r	.	.
.	16aan\JJ	.	.	.	.	.	.	.	.	.	.
4cn 4F# 4D^<\	16ff#\LL	.	.	.	.	.	.	.	4r	.	.
.	16dd\	.	.	.	.	.	.	.	.	.	.
.	16cc\	.	.	.	.	.	.	.	.	.	.
!	!LO:SIC:v:s=16aJJ)	!	!	!	!	!	!	!	!	!	!
.	16a#\JJ)	]	.	.	.	.	.	.	.	.	.
=21	=21	=21	=21	=21	=21	=21	=21	=21	=21	=21	=21
8GG\L	16g/LL	.	1ryy	.	1ryy	.	.	.	2r	.	.
.	16d/	.	.	.	.	.	.	.	.	.	.
8BJ 8G 8D\	16e/	.	.	.	.	.	.	.	.	.	.
.	16f#/JJ	.	.	.	.	.	.	.	.	.	.
8BL 8G 8D\	16g/LL	.	.	.	.	.	.	.	.	.	.
.	16g/	.	.	.	.	.	.	.	.	.	.
8BJ 8G 8D\	16g/	.	.	.	.	.	.	.	.	.	.
.	16g/JJ	.	.	.	.	.	.	.	.	.	.
*tremolo	*	*	*	*	*	*	*	*	*	*	*
8BL 8G 8D\	(16g/LL	.	.	.	.	.	.	.	4.B\	Tyś	.
.	16a/	.	.	.	.	.	.	.	.	.	.
8B 8G 8D\	16b/	.	.	.	.	.	.	.	.	.	.
.	16f#/JJ	.	.	.	.	.	.	.	.	.	.
8B 8G 8D\	16a/LL	.	.	.	.	.	.	.	.	.	.
.	16g/	.	.	.	.	.	.	.	.	.	.
8BJ 8G 8D\	16f#/	.	.	.	.	.	.	.	8B\	mi	.
.	16e/JJ)	.	.	.	.	.	.	.	.	.	.
*Xtremolo	*	*	*	*	*	*	*	*	*	*	*
!!LO:LB:g=original
=22	=22	=22	=22	=22	=22	=22	=22	=22	=22	=22	=22
8GG\L	16r	.	1ryy	.	1ryy	.	.	.	4e\	Pa-	.
.	16d/LL	.	.	.	.	.	.	.	.	.	.
8BJ 8G 8D\	16e/	.	.	.	.	.	.	.	.	.	.
.	16f#/JJ	.	.	.	.	.	.	.	.	.	.
8BL 8G 8D\	16g/LL	.	.	.	.	.	.	.	4d\	-nią	.
.	16g/	.	.	.	.	.	.	.	.	.	.
8BJ 8G 8D\	16g/	.	.	.	.	.	.	.	.	.	.
.	16g/JJ	.	.	.	.	.	.	.	.	.	.
*tremolo	*	*	*	*	*	*	*	*	*	*	*
8BL 8G 8D\	(16g/LL	.	.	.	.	.	.	.	4.g\	tyś	.
.	16a/	.	.	.	.	.	.	.	.	.	.
8B 8G 8D\	16b/	.	.	.	.	.	.	.	.	.	.
.	16f#/JJ	.	.	.	.	.	.	.	.	.	.
.	(8qa/	.	.	.	.	.	.	.	.	.	.
8B 8G 8D\	16g/LL)	.	.	.	.	.	.	.	.	.	.
.	16f#/	.	.	.	.	.	.	.	.	.	.
8BJ 8G 8D\	16g/	.	.	.	.	.	.	.	8B\	kró-	.
.	16b/JJ)	.	.	.	.	.	.	.	.	.	.
*Xtremolo	*	*	*	*	*	*	*	*	*	*	*
=23	=23	=23	=23	=23	=23	=23	=23	=23	=23	=23	=23
8AA\L	(8.b\L	<	1ryy	.	1ryy	.	.	.	(4A/	-lo-	.
8dJ 8A 8F#\	.	.	.	.	.	.	.	.	.	.	.
.	16a\Jk	.	.	.	.	.	.	.	.	.	.
8dL 8A 8F#\	16g#X\LL	.	.	.	.	.	.	.	8G#X/L	.	.
.	16a\	.	.	.	.	.	.	.	.	.	.
8dJ 8A 8F#\	16dd\	.	.	.	.	.	.	.	8A/J	.	.
.	16ff#X\JJ)	[	.	.	.	.	.	.	.	.	.
8AA\L	(16aa\LL	>	.	.	.	.	.	.	4.f#\	.	.
.	16ggn\	.	.	.	.	.	.	.	.	.	.
8c#XJ 8A 8G\	16ee\	.	.	.	.	.	.	.	.	.	.
.	16cc#X\JJ	.	.	.	.	.	.	.	.	.	.
8c# 8A 8G\	16a/LL	.	.	.	.	.	.	.	.	.	.
!	!LO:SIC:v:s=16g	!	!	!	!	!	!	!	!	!	!
.	16g#/	.	.	.	.	.	.	.	.	.	.
8r	16e/	.	.	.	.	.	.	.	8e\)	.	.
.	16c#X/JJ)	]	.	.	.	.	.	.	.	.	.
=24	=24	=24	=24	=24	=24	=24	=24	=24	=24	=24	=24
(2D 2DD/	4d/	.	1ryy	.	1ryy	.	.	.	4d\	-wą	.
.	4r	.	.	.	.	.	.	.	4r	.	.
4C#X 4CC#X/	2r	.	.	.	.	.	.	.	2r	.	.
4Cn 4CCn/)	.	.	.	.	.	.	.	.	.	.	.
=25	=25	=25	=25	=25	=25	=25	=25	=25	=25	=25	=25
8BB-XL 8BBB-X\	16r	.	1ryy	.	1ryy	.	.	.	4r	.	.
.	16fn\LL	.	.	.	.	.	.	.	.	.	.
8dJ 8B-X 8Fn\	16g\	.	.	.	.	.	.	.	.	.	.
.	16a\JJ	.	.	.	.	.	.	.	.	.	.
*tremolo	*	*	*	*	*	*	*	*	*	*	*
!	!	!	!	!	!	!	!	!	!LO:SIC:v:s=8B-	!	!
8dL 8B- 8F\	16b-X\LL	.	.	.	.	.	.	.	8B\	za	.
.	16b-\	.	.	.	.	.	.	.	.	.	.
!	!	!	!	!	!	!	!	!	!LO:SIC:v:s=8B-	!	!
8d 8B- 8F\	16b-\	.	.	.	.	.	.	.	8B\	te	.
.	16b-\JJ	.	.	.	.	.	.	.	.	.	.
!	!	!	!	!	!	!	!	!	!LO:SIC:v:s=8B-	!	!
8d 8B- 8F\	(16b-\LL	.	.	.	.	.	.	.	8B\	pię-	.
.	16cc\	.	.	.	.	.	.	.	.	.	.
!	!	!	!	!	!	!	!	!	!LO:SIC:v:s=8B-	!	!
8d 8B- 8F\	16dd\	.	.	.	.	.	.	.	8B\	-kne	.
.	16a\JJ	.	.	.	.	.	.	.	.	.	.
!	!	!	!	!	!	!	!	!	!LO:SIC:v:s=8B-	!	!
8d 8B- 8F\	16cc\LL	.	.	.	.	.	.	.	8B\	czar-	.
.	16b-\	.	.	.	.	.	.	.	.	.	.
!	!	!	!	!	!	!	!	!	!LO:SIC:v:s=8B-	!	!
8dJ 8B- 8F\	16a\	.	.	.	.	.	.	.	8B\	-ne	.
.	16g\JJ)	.	.	.	.	.	.	.	.	.	.
*Xtremolo	*	*	*	*	*	*	*	*	*	*	*
!!LO:LB:g=original
=26	=26	=26	=26	=26	=26	=26	=26	=26	=26	=26	=26
8BB-XL 8BBB-X\	16r	.	1ryy	.	1ryy	.	.	.	4e-X\	o-	.
.	16fn/LL	.	.	.	.	.	.	.	.	.	.
8dJ 8B-X 8Fn\	16g/	.	.	.	.	.	.	.	.	.	.
.	16a/JJ	.	.	.	.	.	.	.	.	.	.
*tremolo	*	*	*	*	*	*	*	*	*	*	*
8dL 8B- 8F\	16b-X\LL	.	.	.	.	.	.	.	8d\	-czy	.
.	16b-\	.	.	.	.	.	.	.	.	.	.
8d 8B- 8F\	16b-\	.	.	.	.	.	.	.	8r	.	.
.	16b-\JJ	.	.	.	.	.	.	.	.	.	.
!	!	!	!	!	!	!	!	!	!LO:TX:a:i:t=(bierze ją w objęcia)	!	!
8d 8B- 8F\	(16b-\LL	.	.	.	.	.	.	.	4.d\	za	.
.	16cc\	.	.	.	.	.	.	.	.	.	.
8d 8B- 8F\	16dd\	.	.	.	.	.	.	.	.	.	.
.	16a\JJ	.	.	.	.	.	.	.	.	.	.
.	(8qcc/	.	.	.	.	.	.	.	.	.	.
8d 8B- 8F\	16b-\LL)	.	.	.	.	.	.	.	.	.	.
.	16a\	.	.	.	.	.	.	.	.	.	.
8dJ 8B- 8F\	16b-\	.	.	.	.	.	.	.	8d\	ten	.
.	16dd\JJ)	.	.	.	.	.	.	.	.	.	.
*Xtremolo	*	*	*	*	*	*	*	*	*	*	*
=27	=27	=27	=27	=27	=27	=27	=27	=27	=27	=27	=27
8AA\L	(4gg^\	.	1ryy	.	1ryy	.	.	.	4g\	li-	.
8e-XJ 8c 8Fn\	.	.	.	.	.	.	.	.	.	.	.
8e-L 8c 8F\	16ffn\LL)	.	.	.	.	.	.	.	8fn\	-ca	.
.	(16cc\	.	.	.	.	.	.	.	.	.	.
8e-J 8c 8F\	16bn\	.	.	.	.	.	.	.	16Bn\	kwiat	.
.	16cc\JJ)	.	.	.	.	.	.	.	16c\	u-	.
8BB-X\L	(4ee-X^\	.	.	.	.	.	.	.	4e-X\	-ro-	.
8dJ 8B-X 8F\	.	.	.	.	.	.	.	.	.	.	.
8dL 8B- 8F\	16dd\LL)	<	.	.	.	.	.	.	8d\	-czy	.
.	(16ff\	.	.	.	.	.	.	.	.	.	.
8dJ 8B- 8F\	16ff#X\	.	.	.	.	.	.	.	8r	.	.
.	16gg\JJ)	[	.	.	.	.	.	.	.	.	.
*	*	*	*	*	*	*	*	*	*clefG2	*	*
=28	=28	=28	=28	=28	=28	=28	=28	=28	=28	=28	=28
*	*	*	*	*	*	*	*	*	*ITrd0c0	*	*
!	!	!	!	!	!	!	!	!	!LO:TX:a:t=D. MARJA.	!	!LO:DY:rj
8BBn\L	(4aa-X^\	.	1ryy	.	1ryy	.	.	.	2ff#\	Puść	sf
8dJ 8Fn\	.	.	.	.	.	.	.	.	.	.	.
8d 8F\	16gg\LL)	.	.	.	.	.	.	.	.	.	.
.	(16ddd\	.	.	.	.	.	.	.	.	.	.
8r	16eee-X\	.	.	.	.	.	.	.	.	.	.
.	16eeen\JJ	.	.	.	.	.	.	.	.	.	.
*tremolo	*	*	*	*	*	*	*	*	*	*	*
8GL 8BB 8GG/	16fffn\LL	.	.	.	.	.	.	.	4g/	mnie	.
.	16ddd\	.	.	.	.	.	.	.	.	.	.
8G 8BB 8GG/	16bbn\	.	.	.	.	.	.	.	.	.	.
.	16gg\JJ	.	.	.	.	.	.	.	.	.	.
!	!LO:SIC:v:s=16ff\LL	!	!	!	!	!	!	!	!	!	!
8G 8BB 8GG/	16ff#\LL	.	.	.	.	.	.	.	4r	.	.
.	16dd\	.	.	.	.	.	.	.	.	.	.
8GJ 8BB 8GG/	16b\	.	.	.	.	.	.	.	.	.	.
.	16g\JJ)	.	.	.	.	.	.	.	.	.	.
*Xtremolo	*	*	*	*	*	*	*	*	*	*	*
!!LO:PB:g=original
=29	=29	=29	=29	=29	=29	=29	=29	=29	=29	=29	=29
*	*	*	*	*	*	*	*	*	*ITrd8c12	*	*
!	!	!	!	!	!	!	!	!	!LO:TX:a:t=MONBAR.	!	!
8E-XL 8C\	16cc\LL	.	1ryy	.	1ryy	.	.	.	4r	.	.
.	16g\	.	.	.	.	.	.	.	.	.	.
8cJ 8G 8E-\	16a\	.	.	.	.	.	.	.	.	.	.
.	16b\JJ	.	.	.	.	.	.	.	.	.	.
*tremolo	*	*	*	*	*	*	*	*	*	*	*
8cL 8G 8E-\	16cc\LL	.	.	.	.	.	.	.	8c\	za	.
.	16cc\	.	.	.	.	.	.	.	.	.	.
8c 8G 8E-\	16cc\	.	.	.	.	.	.	.	8c\	ten	.
.	16cc\JJ	.	.	.	.	.	.	.	.	.	.
8c 8G 8E-\	(16cc\LL	.	.	.	.	.	.	.	8c\	cu-	.
.	16dd\	.	.	.	.	.	.	.	.	.	.
8c 8G 8E-\	16ee-X\	.	.	.	.	.	.	.	8c\	-dny	.
.	16b\JJ	.	.	.	.	.	.	.	.	.	.
8c 8G 8E-\	16dd\LL	.	.	.	.	.	.	.	8c\	wdzięk	.
.	16cc\	.	.	.	.	.	.	.	.	.	.
8cJ 8G 8E-\	16b-X\	.	.	.	.	.	.	.	8c\	w_roz-	.
.	16a-X\JJ)	.	.	.	.	.	.	.	.	.	.
*Xtremolo	*	*	*	*	*	*	*	*	*	*	*
=30	=30	=30	=30	=30	=30	=30	=30	=30	=30	=30	=30
8C\L	16r	.	1ryy	.	1ryy	.	.	.	4c\	-kwi-	.
.	16g/LL	.	.	.	.	.	.	.	.	.	.
8e-XJ 8c 8G\	16a/	.	.	.	.	.	.	.	.	.	.
.	16b/JJ	.	.	.	.	.	.	.	.	.	.
*tremolo	*	*	*	*	*	*	*	*	*	*	*
8e-L 8c 8G\	16cc\LL	.	.	.	.	.	.	.	8G/	-cie	.
.	16cc\	.	.	.	.	.	.	.	.	.	.
8e- 8c 8G\	16cc\	.	.	.	.	.	.	.	8r	.	.
.	16cc\JJ	.	.	.	.	.	.	.	.	.	.
8e- 8c 8G\	(16cc\LL	.	.	.	.	.	.	.	4.e-X\	cu-	.
.	16dd\	.	.	.	.	.	.	.	.	.	.
8e- 8c 8G\	16ee-X\	.	.	.	.	.	.	.	.	.	.
.	16b\JJ	.	.	.	.	.	.	.	.	.	.
.	8qdd/	.	.	.	.	.	.	.	.	.	.
8e- 8c 8G\	16cc\LL	.	.	.	.	.	.	.	.	.	.
.	16b\	.	.	.	.	.	.	.	.	.	.
8e-J 8c 8G\	16cc\	.	.	.	.	.	.	.	8e-\	-dny	.
.	16ee-\JJ)	.	.	.	.	.	.	.	.	.	.
*Xtremolo	*	*	*	*	*	*	*	*	*	*	*
=31	=31	=31	=31	=31	=31	=31	=31	=31	=31	=31	=31
8BBn\L	(4aa-X^\	.	1ryy	.	1ryy	.	.	.	(4a-X\	wdzięk	.
8fnJ 8d 8G\	.	.	.	.	.	.	.	.	.	.	.
8fL 8d 8G\	16gg\LL)	.	.	.	.	.	.	.	8g\)	.	.
.	16dd\	.	.	.	.	.	.	.	.	.	.
8fJ 8d 8G\	16cc#X\	.	.	.	.	.	.	.	8d\	w_roz-	.
.	16dd\JJ	.	.	.	.	.	.	.	.	.	.
8C\L	(4ffn^\	.	.	.	.	.	.	.	4fn\	-kwi-	.
8e-XJ 8c 8G\	.	.	.	.	.	.	.	.	.	.	.
8e- 8c 8G\	16ee-X\LL)	.	.	.	.	.	.	.	8e-X\	-cie	.
.	(16gg\	.	.	.	.	.	.	.	.	.	.
8r	16gg#X\	.	.	.	.	.	.	.	8r	.	.
.	16aan\JJ)	.	.	.	.	.	.	.	.	.	.
!!LO:LB:g=original
=32	=32	=32	=32	=32	=32	=32	=32	=32	=32	=32	=32
*	*	*	*	*	*ITrd8c12	*	*	*	*ITrd0c0	*	*
!	!	!	!	!	!LO:TX:a:t=MONBAR.	!	!	!	!LO:TX:a:t=D.  MARJA.	!	!
8C#X\L	(4bb\	.	1ryy	.	1r	.	.	.	2gg\	Puść	.
8gJ 8e 8A\	.	.	.	.	.	.	.	.	.	.	.
4g 4e 4A\	16aa\LL)	.	.	.	.	.	.	.	.	.	.
.	(16eee\	.	.	.	.	.	.	.	.	.	.
.	16fffn\	.	.	.	.	.	.	.	.	.	.
.	16fff#X\JJ	.	.	.	.	.	.	.	.	.	.
(2G (>2C#X (2AA\	16ggg\LL	.	.	.	.	.	.	.	4a/	mnie	.
.	16eee\	.	.	.	.	.	.	.	.	.	.
.	16ccc#X\	.	.	.	.	.	.	.	.	.	.
.	16aa\JJ	.	.	.	.	.	.	.	.	.	.
.	16gg\LL	.	.	.	.	.	.	.	4r	.	.
.	16ee\	.	.	.	.	.	.	.	.	.	.
.	16cc#X\	.	.	.	.	.	.	.	.	.	.
.	16a\JJ)	.	.	.	.	.	.	.	.	.	.
=33	=33	=33	=33	=33	=33	=33	=33	=33	=33	=33	=33
8FnL) 8D\))	16dd\LL	.	1ryy	.	4r	.	.	.	1r	.	.
.	16a\	.	.	.	.	.	.	.	.	.	.
8AJ 8F\	16b\	.	.	.	.	.	.	.	.	.	.
.	16cc#X\JJ	.	.	.	.	.	.	.	.	.	.
*tremolo	*	*	*	*	*	*	*	*	*	*	*
!	!	!	!	!	!	!	!	!LO:DY:a	!	!	!
8AL 8F\	16dd\LL	.	.	.	8fn\	Dał-	.	<	.	.	.
.	16dd\	.	.	.	.	.	.	.	.	.	.
8A 8F\	16dd\	.	.	.	8f\	-bym	.	.	.	.	.
.	16dd\JJ	.	.	.	.	.	.	.	.	.	.
8A 8F\	(16dd\LL	.	.	.	8f\	wszys-	.	.	.	.	.
.	16ee\	.	.	.	.	.	.	.	.	.	.
8A 8F\	16ffn\	.	.	.	8f\	-tko	.	.	.	.	.
.	16cc#\JJ	.	.	.	.	.	.	.	.	.	.
8A 8F\	16dd\LL	.	.	.	8f\	na-	.	.	.	.	.
.	16ee\	.	.	.	.	.	.	.	.	.	.
!	!LO:N:vis=8	!	!	!	!	!	!	!	!	!	!
8AJ 8F\	16ff\JJ)	.	.	.	8f\	-wet	.	[[	.	.	.
.	16r	.	.	.	.	.	.	.	.	.	.
*Xtremolo	*	*	*	*	*	*	*	*	*	*	*
=34	=34	=34	=34	=34	=34	=34	=34	=34	=34	=34	=34
*^	*	*	*	*	*	*	*	*	*	*	*
8r	1BB-X	16r	.	1ryy	.	2fn^\	ży-	.	.	2r	.	.
.	.	16b-X\LL	.	.	.	.	.	.	.	.	.	.
8FnL 8D/	.	16cc\	.	.	.	.	.	.	.	.	.	.
.	.	16cc#X\JJ	.	.	.	.	.	.	.	.	.	.
8F 8D/	.	16dd\LL	.	.	.	.	.	.	.	.	.	.
.	.	16dd\	.	.	.	.	.	.	.	.	.	.
8FJ 8D/	.	16dd\	.	.	.	.	.	.	.	.	.	.
!	!	!LO:TX:b:Bi:t=cres-cen-do-:problem:dynamics with extension lines	!LO:HP:t=cres-cen-do-	!	!	!	!	!	!	!	!	!
.	.	16dd\JJ	<	.	.	.	.	.	.	.	.	.
*tremolo	*	*	*	*	*	*	*	*	*	*	*	*
8FL 8D/	.	16dd\LL	.	.	.	4d\	-cie	.	.	8dd\	Mi-	<
.	.	16ee\	.	.	.	.	.	.	.	.	.	.
8F 8D/	.	16ffn\	.	.	.	.	.	.	.	8dd\	-łość	.
.	.	16cc#\JJ	.	.	.	.	.	.	.	.	.	.
!	!	!	!	!	!	!LO:TX:b:i:t=(porywa ją\nw objęcia)	!	!	!	!	!	!
8F 8D/	.	16dd'\LL	.	.	.	4r	.	.	.	8dd\	twa	.
.	.	16ee'\J	.	.	.	.	.	.	.	.	.	.
8FJ 8D/	.	8ff'\J	.	.	.	.	.	.	.	8dd\	sro-	[[
*Xtremolo	*	*	*	*	*	*	*	*	*	*	*	*
!!LO:LB:g=original
=35	=35	=35	=35	=35	=35	=35	=35	=35	=35	=35	=35	=35
8r	1AA	16r	.	1ryy	.	4.fn\	ah!	.	.	4ffn\	-mo-	.
.	.	16a\LL	.	.	.	.	.	.	.	.	.	.
8FnL 8D/	.	16bn\	.	.	.	.	.	.	.	.	.	.
.	.	16cc#X\JJ	.	.	.	.	.	.	<	.	.	.
8F 8D/	.	16dd\LL	.	.	.	.	.	.	.	4dd\	-tą	.
.	.	16dd\	.	.	.	.	.	.	.	.	.	.
8FJ 8D/	.	16dd\	.	.	.	8f\	je-	.	.	.	.	.
.	.	16dd\JJ	.	.	.	.	.	.	.	.	.	.
*tremolo	*	*	*	*	*	*	*	*	*	*	*	*
8FL 8D/	.	16dd\LL	.	.	.	8f\	-dy-	.	.	2r	.	.
.	.	16ee\	.	.	.	.	.	.	.	.	.	.
8F 8D/	.	16ffn\	.	.	.	8f\	-ną	.	.	.	.	.
.	.	16cc#X\JJ	.	.	.	.	.	.	.	.	.	.
8F 8D/	.	16dd'\LL	.	.	.	8f\	twą	.	.	.	.	.
.	.	16ee'\J	.	.	.	.	.	.	.	.	.	.
8FJ 8D/	.	8ff'\J	.	.	.	8f\	pie-	.	[	.	.	.
*Xtremolo	*	*	*	*	*	*	*	*	*	*	*	*
=36	=36	=36	=36	=36	=36	=36	=36	=36	=36	=36	=36	=36
8r	1GG#X	16r	.	1ryy	.	2fn\	-szczo-	.	.	1r	.	.
.	.	16cc#X\LL	.	.	.	.	.	.	.	.	.	.
8FnL 8D/	.	16dd\	.	.	.	.	.	.	.	.	.	.
.	.	16ee\JJ	.	.	.	.	.	.	.	.	.	.
8F 8D/	.	16ffn\LL	.	.	.	.	.	.	.	.	.	.
.	.	16cc#\	.	.	.	.	.	.	.	.	.	.
8FJ 8D/	.	16dd\	.	.	.	.	.	.	.	.	.	.
.	.	16ee\JJ	.	.	.	.	.	.	.	.	.	.
*tremolo	*	*	*	*	*	*	*	*	*	*	*	*
8FL 8D/	.	16ff\LL	.	.	.	4d\	-tą	.	.	.	.	.
.	.	16cc#\	.	.	.	.	.	.	.	.	.	.
8F 8D/	.	16dd\	.	.	.	.	.	.	.	.	.	.
.	.	16ee\JJ	.	.	.	.	.	.	.	.	.	.
8F 8D/	.	16ff\LL	.	.	.	4r	.	.	.	.	.	.
.	.	16ee\	.	.	.	.	.	.	.	.	.	.
8FJ 8D/	.	16ff\	.	.	.	.	.	.	.	.	.	.
.	.	16dd\JJ	[[	.	.	.	.	.	.	.	.	.
*Xtremolo	*	*	*	*	*	*	*	*	*	*	*	*
=37	=37	=37	=37	=37	=37	=37	=37	=37	=37	=37	=37	=37
!LO:N:vis=2	!	!LO:TX:b:i:t=acceleran e sempre più:dur=8q:ext=cd:problem:text with extension lines	!	!	!	!	!	!	!LO:DY:rj	!	!	!LO:DY:rj
8AA/L	2AA\	16aa\LL	f	1ryy	.	4c#X\	Zgaś	.	f	2aa\	Puść	ff
.	.	16cc#X\	.	.	.	.	.	.	.	.	.	.
8E 8C#X/	.	16dd\	.	.	.	.	.	.	.	.	.	.
.	.	16dd#X\JJ	.	.	.	.	.	.	.	.	.	.
8E 8C#/	.	16ee\LL	.	.	.	4c#\	żar	.	.	.	.	.
.	.	16ee\	.	.	.	.	.	.	.	.	.	.
8EJ 8C#/	.	16ee\	.	.	.	.	.	.	.	.	.	.
.	.	16ee\JJ	.	.	.	.	.	.	.	.	.	.
*tremolo	*	*	*	*	*	*	*	*	*	*	*	*
8EL 8C#/	2ryy	16r	.	.	.	8c#\	co	.	.	4a/	mnie	.
.	.	16ee\LL	.	.	.	.	.	.	.	.	.	.
8E 8C#/	.	16ffn\	.	.	.	8c#\	me	.	.	.	.	.
.	.	16ff#X\JJ	.	.	.	.	.	.	.	.	.	.
8E 8C#/	.	16gg\LL	.	.	.	8c#\	ser-	.	.	4r	.	.
.	.	16gg\	.	.	.	.	.	.	.	.	.	.
8EJ 8C#/	.	16gg\	.	.	.	8c#\	-ce	.	.	.	.	.
.	.	16gg\JJ	.	.	.	.	.	.	.	.	.	.
*Xtremolo	*	*	*	*	*	*	*	*	*	*	*	*
!!LO:LB:g=original
=38	=38	=38	=38	=38	=38	=38	=38	=38	=38	=38	=38	=38
8r	1BB-X	16r	.	1ryy	.	1d	tra-	.	sf	4r	.	.
.	.	16gg\LL	.	.	.	.	.	.	.	.	.	.
8EL 8D/	.	16ff#X\	.	.	.	.	.	.	.	.	.	.
.	.	16ffn\JJ	.	.	.	.	.	.	.	.	.	.
8E 8D/	.	16ee\LL	.	.	.	.	.	.	.	8ee\	któż	<
.	.	16ee\	.	.	.	.	.	.	.	.	.	.
*tremolo	*	*	*	*	*	*	*	*	*	*	*	*
8EJ 8D/	.	16ee\	.	.	.	.	.	.	.	8ee\	mnie	.
.	.	16ee\JJ	.	.	.	.	.	.	.	.	.	.
8EL 8D/	.	16r	.	.	.	.	.	.	.	8ee\	z_rąk	.
.	.	16ee\LL	.	.	.	.	.	.	.	.	.	.
8E 8D/	.	16ff\	.	.	.	.	.	.	.	8ee\	tych,	.
.	.	16ff#X\JJ	.	.	.	.	.	.	.	.	.	.
8E 8D/	.	16gg\LL	.	.	.	.	.	.	.	8ee\	kto	.
.	.	16gg\	.	.	.	.	.	.	.	.	.	.
8EJ 8D/	.	16gg\	.	.	.	.	.	.	.	8ee\	wy-	[
.	.	16gg\JJ	.	.	.	.	.	.	.	.	.	.
*Xtremolo	*	*	*	*	*	*	*	*	*	*	*	*
*v	*v	*	*	*	*	*	*	*	*	*	*	*
=39	=39	=39	=39	=39	=39	=39	=39	=39	=39	=39	=39
!	!LO:TX:b:Bi:t=cres-:problem:dynamics with extension lines	!LO:HP:t=cres-	!	!	!	!	!	!	!	!	!
8AA/L	16r	<	1ryy	.	4c#X\	-wi	.	.	4gg^^\	-ba-	.
.	16cc#X\LL	.	.	.	.	.	.	.	.	.	.
8EJ 8C#X/	16dd\	.	.	.	.	.	.	.	.	.	.
.	16dd#X\JJ	.	.	.	.	.	.	.	.	.	.
*tremolo	*	*	*	*	*	*	*	*	*	*	*
8EL 8C#/	16ee\LL	.	.	.	4r	.	.	.	4a/	-wi	.
.	16ee\	.	.	.	.	.	.	.	.	.	.
8E 8C#/	16ee\	.	.	.	.	.	.	.	.	.	.
.	16ee\JJ	.	.	.	.	.	.	.	.	.	.
8E 8C#/	16r	.	.	.	4c#\	zgaś	.	.	2r	.	.
.	16ee\LL	.	.	.	.	.	.	.	.	.	.
8E 8C#/	16ffn\	.	.	.	.	.	.	.	.	.	.
.	16ff#X\JJ	.	.	.	.	.	.	.	.	.	.
8E 8C#/	16gg\LL	.	.	.	4c#\	żar	.	.	.	.	.
.	16gg\	.	.	.	.	.	.	.	.	.	.
8EJ 8C#/	16gg\	.	.	.	.	.	.	.	.	.	.
.	16gg\JJ	.	.	.	.	.	.	.	.	.	.
*Xtremolo	*	*	*	*	*	*	*	*	*	*	*
=40	=40	=40	=40	=40	=40	=40	=40	=40	=40	=40	=40
*^	*	*	*	*	*	*	*	*	*	*	*
8r	1BB-X	16r	.	1ryy	.	8d\	co	.	<	4r	.	.
.	.	16gg\LL	.	.	.	.	.	.	.	.	.	.
8EL 8D/	.	16ff#X\	.	.	.	8d\	me	.	.	.	.	.
.	.	16ffn\JJ	.	.	.	.	.	.	.	.	.	.
8E 8D/	.	16ee\LL	.	.	.	8d\	ser-	.	.	8ee\	ty-	<
.	.	16ee\	.	.	.	.	.	.	.	.	.	.
8EJ 8D/	.	16ee\	.	.	.	8d\	-ce	.	.	8ee\	-le	.
.	.	16ee\JJ	.	.	.	.	.	.	.	.	.	.
*tremolo	*	*	*	*	*	*	*	*	*	*	*	*
8EL 8D/	.	16r	.	.	.	2d\	tra-	.	[	8ee\	hań-	.
.	.	16ee\LL	.	.	.	.	.	.	.	.	.	.
8E 8D/	.	16ff\	.	.	.	.	.	.	.	8ee\	-by	.
.	.	16ff#X\JJ	.	.	.	.	.	.	.	.	.	.
8E 8D/	.	16gg\LL	.	.	.	.	.	.	.	8ee\	ty-	.
.	.	16gg\	.	.	.	.	.	.	.	.	.	.
8EJ 8D/	.	16gg\	.	.	.	.	.	.	.	8ee\	-le	[[
.	.	16gg\JJ	.	.	.	.	.	.	.	.	.	.
*Xtremolo	*	*	*	*	*	*	*	*	*	*	*	*
!!LO:PB:g=original
=41	=41	=41	=41	=41	=41	=41	=41	=41	=41	=41	=41	=41
8r	1AA	16r	.	1ryy	.	4c#X\	-wi	.	.	4gg\	mąk	.
.	.	16cc#X\LL	.	.	.	.	.	.	.	.	.	.
8EL 8C#X/	.	16dd\	.	.	.	.	.	.	.	.	.	.
.	.	16dd#X\JJ	.	.	.	.	.	.	.	.	.	.
8E 8C#/	.	16ee\LL	.	.	.	4r	.	.	.	4r	.	.
.	.	16ee\	.	.	.	.	.	.	.	.	.	.
8EJ 8C#/	.	16ee\	.	.	.	.	.	.	.	.	.	.
.	.	16ee\JJ	.	.	.	.	.	.	.	.	.	.
*tremolo	*	*	*	*	*	*	*	*	*	*	*	*
8EL 8C#/	.	16r	.	.	.	4.c#\	Ni	.	f	2r	.	.
.	.	16ee\LL	.	.	.	.	.	.	.	.	.	.
8E 8C#/	.	16ffn\	.	.	.	.	.	.	.	.	.	.
.	.	16ff#X\JJ	.	.	.	.	.	.	.	.	.	.
8E 8C#/	.	16gg\LL	.	.	.	.	.	.	.	.	.	.
.	.	16gg\	.	.	.	.	.	.	.	.	.	.
8EJ 8C#/	.	16gg\	.	.	.	8c#\	pie-	.	.	.	.	.
.	.	16gg\JJ	[[	.	.	.	.	.	.	.	.	.
*Xtremolo	*	*	*	*	*	*	*	*	*	*	*	*
=42	=42	=42	=42	=42	=42	=42	=42	=42	=42	=42	=42	=42
8r	1GG	16r	f	1ryy	.	4.c#X\	-kiel-	.	.	2ee\	ah!	sf
.	.	16ee\LL	.	.	.	.	.	.	.	.	.	.
8EL 8C#X 8BB-X/	.	16ffn\	.	.	.	.	.	.	.	.	.	.
.	.	16ff#X\JJ	.	.	.	.	.	.	.	.	.	.
8E 8C# 8BB-/	.	16gg\LL	.	.	.	.	.	.	.	.	.	.
.	.	16gg\	.	.	.	.	.	.	.	.	.	.
8EJ 8C# 8BB-/	.	16gg\	.	.	.	8c#\	-nych	.	.	.	.	.
.	.	16gg\JJ	.	.	.	.	.	.	.	.	.	.
*tremolo	*	*	*	*	*	*	*	*	*	*	*	*
8EL 8C# 8BB-/	.	16r	.	.	.	4.c#\	trwo-	.	.	2r	.	.
.	.	16gg\LL	.	.	.	.	.	.	.	.	.	.
8E 8C# 8BB-/	.	16gg#X\	.	.	.	.	.	.	.	.	.	.
.	.	16aa\JJ	.	.	.	.	.	.	.	.	.	.
8E 8C# 8BB-/	.	16bb-X\LL	.	.	.	.	.	.	.	.	.	.
.	.	16bb-\	.	.	.	.	.	.	.	.	.	.
8EJ 8C# 8BB-/	.	16bb-\	.	.	.	8c#\	-ga	.	.	.	.	.
.	.	16bb-\JJ	.	.	.	.	.	.	.	.	.	.
*Xtremolo	*	*	*	*	*	*	*	*	*	*	*	*
*v	*v	*	*	*	*	*	*	*	*	*	*	*
=43	=43	=43	=43	=43	=43	=43	=43	=43	=43	=43	=43
!	!LO:TX:b:i:t=sempre più animato:dur=15q:ext=cd:problem:text with extension lines	!	!	!	!	!	!	!	!	!	!
4E 4C#X 4BB-X 4GG/	16bb-X\LL	ff	1ryy	.	8e\	mąk	.	ff	4r	.	.
.	16gg\	.	.	.	.	.	.	.	.	.	.
.	16gg#X\	.	.	.	8e\	nie	.	.	.	.	.
.	16aa\JJ	.	.	.	.	.	.	.	.	.	.
4E 4C# 4BB- 4GG/	16bb-\LL	.	.	.	8e\	wy-	.	.	8cc#X\	któż	ff
.	16ggn\	.	.	.	.	.	.	.	.	.	.
.	16gg#X\	.	.	.	8e\	-drze	.	.	8cc#\	mnie	.
.	16aa\JJ	.	.	.	.	.	.	.	.	.	.
4E 4C# 4BB- 4GG/	16bb-\LL	.	.	.	4e\	cię	.	.	4cc#\	wy-	.
.	16ggn\	.	.	.	.	.	.	.	.	.	.
.	16gg#X\	.	.	.	.	.	.	.	.	.	.
.	16aa\JJ	.	.	.	.	.	.	.	.	.	.
4E 4C# 4BB- 4GG/	16bb-\LL	.	.	.	8e\	z_mo-	.	.	4cc#\	-drze	.
.	16ggn\	.	.	.	.	.	.	.	.	.	.
.	16gg#X\	.	.	.	8e\	-ich	.	.	.	.	.
.	16aa\JJ	.	.	.	.	.	.	.	.	.	.
!!LO:LB:g=original
=44	=44	=44	=44	=44	=44	=44	=44	=44	=44	=44	=44
!	!	!	!	!	!	!	!	!	!LO:TX:a:i:t=(po długiem pasowaniu wyrywa się Monbarowi i wskakuje na otwarte okno)	!	!
4E 4C#X 4BB-X 4GG/	16bb-X\LL	.	1ryy	.	8e\	rąk	.	.	2.cc#X\	z_je-	<
*	*8va	*	*	*	*	*	*	*	*	*	*
.	16ccc#X\	.	.	.	.	.	.	.	.	.	.
.	16ddd\	.	.	.	8e\	nie	.	.	.	.	.
.	16ddd#X\JJ	.	.	.	.	.	.	.	.	.	.
4E 4C# 4BB- 4GG/	16eee\LL	.	.	.	8e\	wy-	.	.	.	.	.
.	16ccc#\	.	.	.	.	.	.	.	.	.	.
.	16dddn\	.	.	.	8e\	-drze	.	.	.	.	.
.	16ddd#X\JJ	.	.	.	.	.	.	.	.	.	.
4E 4C# 4BB- 4GG/	16eee\LL	.	.	.	4e\	cię	.	.	.	.	.
.	16ccc#\	.	.	.	.	.	.	.	.	.	.
.	16dddn\	.	.	.	.	.	.	.	.	.	.
.	16ddd#X\JJ	.	.	.	.	.	.	.	.	.	.
4E 4C# 4BB- 4GG/	16eee\LL	.	.	.	8e\	z_mo-	.	.	4ee\	-go	[
.	16ccc#\	.	.	.	.	.	.	.	.	.	.
.	16dddn\	.	.	.	8e\	-ich	.	.	.	.	.
.	16ddd#X\JJ	.	.	.	.	.	.	.	.	.	.
=45	=45	=45	=45	=45	=45	=45	=45	=45	=45	=45	=45
4E 4C#X 4BB-X 4GG/	16eee\LL	.	1ryy	.	4e\	rąk	.	.	4gg\	rąk	.
.	16ccc#X\	.	.	.	.	.	.	.	.	.	.
.	16ddd\	.	.	.	.	.	.	.	.	.	.
.	16ddd#X\JJ	.	.	.	.	.	.	.	.	.	.
4r	16eee\LL	.	.	.	4r	.	.	.	4r	.	.
.	16gg\	.	.	.	.	.	.	.	.	.	.
.	16gg#X\	.	.	.	.	.	.	.	.	.	.
.	16aa\JJ	.	.	.	.	.	.	.	.	.	.
2r	16bb-X\LL	.	.	.	2r	.	.	.	2r	.	.
*	*X8va	*	*	*	*	*	*	*	*	*	*
.	16ee\	.	.	.	.	.	.	.	.	.	.
.	16ffn\	.	.	.	.	.	.	.	.	.	.
.	16ff#X\JJ	.	.	.	.	.	.	.	.	.	.
.	16ggn\LL	.	.	.	.	.	.	.	.	.	.
.	16cc#\	.	.	.	.	.	.	.	.	.	.
.	16dd\	.	.	.	.	.	.	.	.	.	.
.	16dd#X\JJ	.	.	.	.	.	.	.	.	.	.
=46	=46	=46	=46	=46	=46	=46	=46	=46	=46	=46	=46
2r	16ee/LL	.	1ryy	.	1r	.	.	.	1r	.	.
.	16g/	.	.	.	.	.	.	.	.	.	.
.	16g#X/	.	.	.	.	.	.	.	.	.	.
.	16a/JJ	.	.	.	.	.	.	.	.	.	.
.	16b-X/LL	.	.	.	.	.	.	.	.	.	.
.	16e/	.	.	.	.	.	.	.	.	.	.
.	16fn/	.	.	.	.	.	.	.	.	.	.
.	16f#X/JJ	.	.	.	.	.	.	.	.	.	.
4r	16g#/LL	.	.	.	.	.	.	.	.	.	.
.	16c#X/	.	.	.	.	.	.	.	.	.	.
.	16d/	.	.	.	.	.	.	.	.	.	.
.	16d#X/JJ	.	.	.	.	.	.	.	.	.	.
16r	16e/LL	<	.	.	.	.	.	.	.	.	.
16GG/LL	16Gn/	.	.	.	.	.	.	.	.	.	.
16GG#X/	16G#X/	.	.	.	.	.	.	.	.	.	.
16AA/JJ	16A/JJ	[[	.	.	.	.	.	.	.	.	.
!!LO:LB:g=original
=47	=47	=47	=47	=47	=47	=47	=47	=47	=47	=47	=47
!	!LO:TX:a:B:t=a tempo	!	!	!	!	!	!	!	!LO:TX:a:B:t=a tempo	!	!
!	!	!	!	!	!	!	!	!	!LO:TX:a:t=D. MARJA.	!	!
1BB-X	4B-X/	f >	1ryy	.	1ryy	.	.	.	2r	.	.
.	4r	.	.	.	.	.	.	.	.	.	.
!	!	!	!	!	!	!	!	!	!	!	!LO:DY:b:rj
.	2r	]]	.	.	.	.	.	.	4.ee\	Patrz	f
.	.	.	.	.	.	.	.	.	8ee\	w_tę	.
=48	=48	=48	=48	=48	=48	=48	=48	=48	=48	=48	=48
*	*tremolo	*	*	*	*	*	*	*	*	*	*
[<2.BB-X [2.BBB-X\	32c#XLLL 32G</	.	1ryy	.	1ryy	.	.	.	4ee\	prze-	.
.	32E</	.	.	.	.	.	.	.	.	.	.
.	32c# 32G</	.	.	.	.	.	.	.	.	.	.
.	32E</	.	.	.	.	.	.	.	.	.	.
.	32c# 32G</	.	.	.	.	.	.	.	.	.	.
.	32E</	.	.	.	.	.	.	.	.	.	.
.	32c# 32G</	.	.	.	.	.	.	.	.	.	.
.	32E</	.	.	.	.	.	.	.	.	.	.
.	32c# 32G</	.	.	.	.	.	.	.	4ee\	-paść	.
.	32E</	.	.	.	.	.	.	.	.	.	.
.	32c# 32G</	.	.	.	.	.	.	.	.	.	.
.	32E</	.	.	.	.	.	.	.	.	.	.
.	32c# 32G</	.	.	.	.	.	.	.	.	.	.
.	32E</	.	.	.	.	.	.	.	.	.	.
.	32c# 32G</	.	.	.	.	.	.	.	.	.	.
.	32E</JJJ	.	.	.	.	.	.	.	.	.	.
.	32c#LLL 32G</	.	.	.	.	.	.	.	4.ee\	u	.
.	32E</	.	.	.	.	.	.	.	.	.	.
.	32c# 32G</	.	.	.	.	.	.	.	.	.	.
.	32E</	.	.	.	.	.	.	.	.	.	.
.	32c# 32G</	.	.	.	.	.	.	.	.	.	.
.	32E</	.	.	.	.	.	.	.	.	.	.
.	32c# 32G</	.	.	.	.	.	.	.	.	.	.
.	32E</	.	.	.	.	.	.	.	.	.	.
16BB-]LL 16BBB-\]	32c# 32G</	.	.	.	.	.	.	.	.	.	.
.	32E</	.	.	.	.	.	.	.	.	.	.
!	!	!LO:HP:a=2	!	!	!	!	!	!	!	!	!
16GG#X\	32c# 32G</	<	.	.	.	.	.	.	.	.	.
.	32E</	.	.	.	.	.	.	.	.	.	.
16AA\	32c# 32G</	.	.	.	.	.	.	.	8e/	stóp	.
.	32E</	.	.	.	.	.	.	.	.	.	.
16BB-\JJ	32c# 32G</	.	.	.	.	.	.	.	.	.	.
.	32E</JJJ	[[	.	.	.	.	.	.	.	.	.
*	*Xtremolo	*	*	*	*	*	*	*	*	*	*
=49	=49	=49	=49	=49	=49	=49	=49	=49	=49	=49	=49
!	!LO:TX:t=P:problem=mixed beam	!	!	!	!	!	!	!	!	!	!
[1BBn	16dLL 16A-X< 16F#</	.	1ryy	.	1ryy	.	.	.	4fn/	ska-	.
.	16ffn\	.	.	.	.	.	.	.	.	.	.
.	16ff#X\	.	.	.	.	.	.	.	.	.	.
.	16gg\JJ	.	.	.	.	.	.	.	.	.	.
.	16aa-X\LL	.	.	.	.	.	.	.	8f/	-ły	.
.	16dd\	.	.	.	.	.	.	.	.	.	.
.	16ee-X\	.	.	.	.	.	.	.	8r	.	.
.	16een\JJ	.	.	.	.	.	.	.	.	.	.
.	16ffn\LL	.	.	.	.	.	.	.	4.ffn\	w_te	.
.	16bn\	.	.	.	.	.	.	.	.	.	.
.	16cc\	.	.	.	.	.	.	.	.	.	.
.	16cc#X\JJ	.	.	.	.	.	.	.	.	.	.
.	16dd/LL	.	.	.	.	.	.	.	.	.	.
.	16fn/	.	.	.	.	.	.	.	.	.	.
.	16f#X/	.	.	.	.	.	.	.	8ff\	bi-	.
.	16g/JJ	.	.	.	.	.	.	.	.	.	.
=50	=50	=50	=50	=50	=50	=50	=50	=50	=50	=50	=50
2.BB] 2.BBB/	4a-X/	.	1ryy	.	1ryy	.	.	.	4ffn\	-ją-	.
.	4r	.	.	.	.	.	.	.	4ff\	-ce	.
*	*tremolo	*	*	*	*	*	*	*	*	*	*
.	32dLLL 32A-X< 32Fn</	.	.	.	.	.	.	.	4.ff\	z_szu-	.
.	32d 32A-< 32F</	.	.	.	.	.	.	.	.	.	.
.	32d 32A-< 32F</	.	.	.	.	.	.	.	.	.	.
.	32d 32A-< 32F</	.	.	.	.	.	.	.	.	.	.
.	32d 32A-< 32F</	.	.	.	.	.	.	.	.	.	.
.	32d 32A-< 32F</	.	.	.	.	.	.	.	.	.	.
.	32d 32A-< 32F</	.	.	.	.	.	.	.	.	.	.
.	32d 32A-< 32F</	.	.	.	.	.	.	.	.	.	.
16BB/LL	32d 32A-< 32F</	.	.	.	.	.	.	.	.	.	.
.	32d 32A-< 32F</	.	.	.	.	.	.	.	.	.	.
16AA/	32d 32A-< 32F</	.	.	.	.	.	.	.	.	.	.
.	32d 32A-< 32F</	.	.	.	.	.	.	.	.	.	.
16AA#X/	32d 32A-< 32F</	.	.	.	.	.	.	.	8fn/	-mem	.
.	32d 32A-< 32F</	.	.	.	.	.	.	.	.	.	.
16BB/JJ	32d 32A-< 32F</	.	.	.	.	.	.	.	.	.	.
.	32dJJJ 32A-< 32F</	.	.	.	.	.	.	.	.	.	.
*	*Xtremolo	*	*	*	*	*	*	*	*	*	*
!!LO:LB:g=original
=51	=51	=51	=51	=51	=51	=51	=51	=51	=51	=51	=51
!	!LO:TX:t=P:problem=mixed beam	!	!	!	!	!	!	!	!	!	!
[1C	16e-XLL 16An< 16F#X</	.	1ryy	.	1ryy	.	.	.	4f#X/	wa-	.
.	16ff#X\	.	.	.	.	.	.	.	.	.	.
.	16gg\	.	.	.	.	.	.	.	.	.	.
.	16gg#X\JJ	.	.	.	.	.	.	.	.	.	.
.	16aa\LL	.	.	.	.	.	.	.	8f#/	-ły	.
.	16cc\	.	.	.	.	.	.	.	.	.	.
.	16cc#X\	.	.	.	.	.	.	.	8a/	krok	.
.	16dd\JJ	.	.	.	.	.	.	.	.	.	.
.	16ee-X\LL	.	.	.	.	.	.	.	8cc\	je-	.
.	16a\	.	.	.	.	.	.	.	.	.	.
.	16b-X\	.	.	.	.	.	.	.	8cc\	-den	.
.	16bn\JJ	.	.	.	.	.	.	.	.	.	.
.	16ccn/LL	.	.	.	.	.	.	.	4r	.	.
.	16f#X/	.	.	.	.	.	.	.	.	.	.
.	16gn/	.	.	.	.	.	.	.	.	.	.
.	16g#X/JJ	.	.	.	.	.	.	.	.	.	.
=52	=52	=52	=52	=52	=52	=52	=52	=52	=52	=52	=52
2.C_< [2.CC\	4an/	.	1ryy	.	1ryy	.	.	.	2ee-X\	twój	.
.	4r	.	.	.	.	.	.	.	.	.	.
*	*tremolo	*	*	*	*	*	*	*	*	*	*
.	32e-XLLL 32An< 32F#X</	.	.	.	.	.	.	.	4.ee-\	szał	.
.	32e- 32A< 32F#</	.	.	.	.	.	.	.	.	.	.
.	32e- 32A< 32F#</	.	.	.	.	.	.	.	.	.	.
.	32e- 32A< 32F#</	.	.	.	.	.	.	.	.	.	.
.	32e- 32A< 32F#</	.	.	.	.	.	.	.	.	.	.
.	32e- 32A< 32F#</	.	.	.	.	.	.	.	.	.	.
.	32e- 32A< 32F#</	.	.	.	.	.	.	.	.	.	.
.	32e- 32A< 32F#</	.	.	.	.	.	.	.	.	.	.
16C]LL 16CC/]	32e- 32A< 32F#</	.	.	.	.	.	.	.	.	.	.
.	32e- 32A< 32F#</	.	.	.	.	.	.	.	.	.	.
16BB-X/	32e- 32A< 32F#</	.	.	.	.	.	.	.	.	.	.
.	32e- 32A< 32F#</	.	.	.	.	.	.	.	.	.	.
16BBn/	32e- 32A< 32F#</	.	.	.	.	.	.	.	8ee-\	prze-	.
.	32e- 32A< 32F#</	.	.	.	.	.	.	.	.	.	.
16C/JJ	32e- 32A< 32F#</	.	.	.	.	.	.	.	.	.	.
.	32e-JJJ 32A< 32F#</	.	.	.	.	.	.	.	.	.	.
*	*Xtremolo	*	*	*	*	*	*	*	*	*	*
=53	=53	=53	=53	=53	=53	=53	=53	=53	=53	=53	=53
!	!LO:TX:t=P:problem=mixed beam	!	!	!	!	!	!	!	!	!	!
[1C#X	16enLL 16B-X< 16G</	.	1ryy	.	1ryy	.	.	.	4een\	-mi-	.
.	16gg\	.	.	.	.	.	.	.	.	.	.
.	16gg#X\	.	.	.	.	.	.	.	.	.	.
.	16aa\JJ	.	.	.	.	.	.	.	.	.	.
.	16bb-X\LL	.	.	.	.	.	.	.	8ee\	-nie	.
.	16ee\	.	.	.	.	.	.	.	.	.	.
.	16ffn\	.	.	.	.	.	.	.	8r	.	.
.	16ff#X\JJ	.	.	.	.	.	.	.	.	.	.
.	16ggn\LL	.	.	.	.	.	.	.	4.ee\	kie-	.
.	16cc#X\	.	.	.	.	.	.	.	.	.	.
.	16dd\	.	.	.	.	.	.	.	.	.	.
.	16dd#X\JJ	.	.	.	.	.	.	.	.	.	.
.	16ee\LL	.	.	.	.	.	.	.	.	.	.
.	16g\	.	.	.	.	.	.	.	.	.	.
.	16g#X\	.	.	.	.	.	.	.	8ee\	-dy	.
.	16a\JJ	.	.	.	.	.	.	.	.	.	.
=54	=54	=54	=54	=54	=54	=54	=54	=54	=54	=54	=54
1C#] 1CC#X	4b-X\	.	1ryy	.	1ryy	.	.	.	4ee\	znaj-	.
.	4r	.	.	.	.	.	.	.	4ee\	-dę	.
*	*tremolo	*	*	*	*	*	*	*	*	*	*
.	32eLLL 32B-X< 32G</	.	.	.	.	.	.	.	4.gg\	śmierć	.
.	32e 32B-< 32G</	.	.	.	.	.	.	.	.	.	.
.	32e 32B-< 32G</	.	.	.	.	.	.	.	.	.	.
.	32e 32B-< 32G</	.	.	.	.	.	.	.	.	.	.
.	32e 32B-< 32G</	.	.	.	.	.	.	.	.	.	.
.	32e 32B-< 32G</	.	.	.	.	.	.	.	.	.	.
.	32e 32B-< 32G</	.	.	.	.	.	.	.	.	.	.
.	32e 32B-< 32G</	.	.	.	.	.	.	.	.	.	.
.	32e 32B-< 32G</	.	.	.	.	.	.	.	.	.	.
.	32e 32B-< 32G</	.	.	.	.	.	.	.	.	.	.
.	32e 32B-< 32G</	.	.	.	.	.	.	.	.	.	.
.	32e 32B-< 32G</	.	.	.	.	.	.	.	.	.	.
.	32e 32B-< 32G</	.	.	.	.	.	.	.	8ee\	w_ich	.
.	32e 32B-< 32G</	.	.	.	.	.	.	.	.	.	.
.	32e 32B-< 32G</	.	.	.	.	.	.	.	.	.	.
.	32eJJJ 32B-< 32G</	.	.	.	.	.	.	.	.	.	.
*	*Xtremolo	*	*	*	*	*	*	*	*	*	*
!!LO:PB:g=original
=55	=55	=55	=55	=55	=55	=55	=55	=55	=55	=55	=55
!	!LO:TX:t=P:problem=mixed beam	!	!LO:TX:a:t=D. ALONZO. (Chwytając za oręż .)	!	!LO:TX:a:t=MONBAR. (z daleka)	!	!	!	!LO:TX:a:t=D. MARJA.	!	!
8DL 8DD\	16dLL 16A< 16F#</	.	8.r	.	2f#\	stój!	.	.	(2.dd\	ło-	.
.	16ff#X\	.	.	.	.	.	.	.	.	.	.
16F#L 16D\	16gg\	.	.	.	.	.	.	.	.	.	.
16A\JJ	16gg#X\JJ	.	16A\	Czyż	.	.	.	.	.	.	.
*tremolo	*	*	*	*	*	*	*	*	*	*	*
16F#LL 16D\	16aa\LL	.	8A\	wy-	.	.	.	.	.	.	.
16A\	16dd\	.	.	.	.	.	.	.	.	.	.
16F# 16D\	16ee\	.	8A\	-trwam?	.	.	.	.	.	.	.
16A\	16ee#X\JJ	.	.	.	.	.	.	.	.	.	.
16F# 16D\	16ff#\LL	.	4r	.	2r	.	.	.	.	.	.
16A\	16a\	.	.	.	.	.	.	.	.	.	.
16F# 16D\	16b\	.	.	.	.	.	.	.	.	.	.
16A\	16cc#X\JJ	.	.	.	.	.	.	.	.	.	.
16F# 16D\	16dd/LL	.	8A\	Mo-	.	.	.	.	4d/)	-nie	.
16A\	16f#/	.	.	.	.	.	.	.	.	.	.
16F# 16D\	16gn/	.	8A\	-cny	.	.	.	.	.	.	.
16A\JJ	16a/JJ	.	.	.	.	.	.	.	.	.	.
=56	=56	=56	=56	=56	=56	=56	=56	=56	=56	=56	=56
16GLL 16E-X 16C#X\	16r	.	4B-X\	Bo-	1r	.	.	.	1r	.	.
16B-\	16gg\LL	.	.	.	.	.	.	.	.	.	.
16G 16E- 16C#\	16aa-X\	.	.	.	.	.	.	.	.	.	.
16B-\	16aan\JJ	.	.	.	.	.	.	.	.	.	.
16G 16E- 16C#\	16bb-X\LL	.	8B-\	-że	.	.	.	.	.	.	.
16B-\	16ee-X\	.	.	.	.	.	.	.	.	.	.
16G 16E- 16C#\	16ffn\	.	8r	.	.	.	.	.	.	.	.
16B-X\JJ	16ff#X\JJ	.	.	.	.	.	.	.	.	.	.
16GLL 16E- 16C#\	16gg\LL	.	4.B-\	w_To-	.	.	.	.	.	.	.
16B-\	16b-X\	.	.	.	.	.	.	.	.	.	.
16G 16E- 16C#\	16cc\	.	.	.	.	.	.	.	.	.	.
16B-\	16dd\JJ	.	.	.	.	.	.	.	.	.	.
16G 16E- 16C#\	16ee-\LL	.	.	.	.	.	.	.	.	.	.
16B-\	16g\	.	.	.	.	.	.	.	.	.	.
16G 16E- 16C#\	16b-\	.	8B-\	-bie	.	.	.	.	.	.	.
16B-\JJ	16g\JJ	.	.	.	.	.	.	.	.	.	.
=57	=57	=57	=57	=57	=57	=57	=57	=57	=57	=57	=57
16F#LL 16D\	4d/	.	4B-X\	uf-	1r	.	.	.	1r	.	.
16A\	.	.	.	.	.	.	.	.	.	.	.
16F# 16D\	.	.	.	.	.	.	.	.	.	.	.
16A\	.	.	.	.	.	.	.	.	.	.	.
!	!	!	!LO:TX:a:i:t=poco a poco rallen:dur=7q:ext=cd:problem:text with extension lines	!	!	!	!	!	!	!	!
16F# 16D\	4r	.	8A\	-ność	.	.	.	.	.	.	.
16A\	.	.	.	.	.	.	.	.	.	.	.
16F# 16D\	.	.	8r	.	.	.	.	.	.	.	.
16A\JJ	.	.	.	.	.	.	.	.	.	.	.
16FnLL 16E-X 16Cn\	2r	.	8A\	wkrót-	.	.	.	.	.	.	.
16A\	.	.	.	.	.	.	.	.	.	.	.
16F 16E- 16C\	.	.	8A\	-ce	.	.	.	.	.	.	.
16A\	.	.	.	.	.	.	.	.	.	.	.
16F 16E- 16C\	.	.	8A\	wszy-	.	.	.	.	.	.	.
16A\	.	.	.	.	.	.	.	.	.	.	.
16F 16E- 16C\	.	.	8A\	-stkie	.	.	.	.	.	.	.
16A\JJ	.	.	.	.	.	.	.	.	.	.	.
!!LO:LB:g=original
=58	=58	=58	=58	=58	=58	=58	=58	=58	=58	=58	=58
!	!LO:TX:b:Bi:t=dimin-:problem:dynamics with extension lines	!	!	!	!	!	!	!	!	!	!
!	!LO:TX:b:i:t=rallen	!LO:HP:t=dimin	!LO:TX:a:t=D. ALONZO.	!	!LO:TX:a:t=MONBAR.	!	!	!	!	!	!
16FnLL 16D 16BB-X\	1r	>]	8B-X\	skon-	1r	.	.	.	1ryy	.	.
16B-X\	.	.	.	.	.	.	.	.	.	.	.
16F 16D 16BB-\	.	.	8B-\	-czą	.	.	.	.	.	.	.
16B-\	.	.	.	.	.	.	.	.	.	.	.
16F 16D 16BB-\	.	.	8B-\	się	.	.	.	.	.	.	.
16B-\	.	.	.	.	.	.	.	.	.	.	.
16F 16D 16BB-\	.	.	8B-\	mę-	.	.	.	.	.	.	.
16B-\JJ	.	.	.	.	.	.	.	.	.	.	.
16FLL 16D 16BB-\	.	.	2B-\	-czar-	.	.	.	.	.	.	.
16A-X\	.	.	.	.	.	.	.	.	.	.	.
16F 16D 16BB-\	.	.	.	.	.	.	.	.	.	.	.
16A-\	.	.	.	.	.	.	.	.	.	.	.
16F 16D 16BB-\	.	.	.	.	.	.	.	.	.	.	.
16A-\	.	.	.	.	.	.	.	.	.	.	.
16F 16D 16BB-\	.	.	.	.	.	.	.	.	.	.	.
16A-\JJ	.	.	.	.	.	.	.	.	.	.	.
*Xtremolo	*	*	*	*	*	*	*	*	*	*	*
=59	=59	=59	=59	=59	=59	=59	=59	=59	=59	=59	=59
!	!	!	!LO:TX:a:B:t=Tempo I°.	!	!	!	!	!	!	!	!
8GL 8E-X\	16r	p	4E-X\	-nie	4r	.	.	.	1ryy	.	.
!	!LO:TX:a:B:t=Tempo I°.	!	!	!	!	!	!	!	!	!	!
!	!LO:TX:a:t=Vno I°	!	!	!	!	!	!	!	!	!	!
.	16b-X\LL	.	.	.	.	.	.	.	.	.	.
!	!	!	!LO:TX:b:i:t=(D. MARJA zbliża się do Ojca)	!	!	!	!	!	!	!	!
8e-XJ 8B-X 8G\	16cc\	.	.	.	.	.	.	.	.	.	.
.	16dd\JJ	.	.	.	.	.	.	.	.	.	.
*tremolo	*	*	*	*	*	*	*	*	*	*	*
8e-L 8B- 8G\	16ee-X\LL	.	4r	.	8r	.	.	.	.	.	.
.	16ee-\	.	.	.	.	.	.	.	.	.	.
8e- 8B- 8G\	16ee-\	.	.	.	8B-X\	Gu-	.	.	.	.	.
.	16ee-\JJ	.	.	.	.	.	.	.	.	.	.
8e- 8B- 8G\	(16ee-\LL	.	2r	.	4fn\	-zma-	.	.	.	.	.
.	16ffn\	.	.	.	.	.	.	.	.	.	.
8e- 8B- 8G\	16gg\	.	.	.	.	.	.	.	.	.	.
.	16dd\JJ	.	.	.	.	.	.	.	.	.	.
8e- 8B- 8G\	16ff\LL	.	.	.	8e-X\	-nie	.	.	.	.	.
.	16ee-\	.	.	.	.	.	.	.	.	.	.
8e-J 8B- 8G\	16dd\	.	.	.	8r	.	.	.	.	.	.
.	16cc\JJ)	.	.	.	.	.	.	.	.	.	.
*Xtremolo	*	*	*	*	*	*	*	*	*	*	*
=60	=60	=60	=60	=60	=60	=60	=60	=60	=60	=60	=60
8E-X\L	16r	.	1r	.	4.e-X\	cór-	.	.	1ryy	.	.
.	16b-X\LL	.	.	.	.	.	.	.	.	.	.
!LO:SIC:v:s=8e-J 8B- 8G	!	!	!	!	!	!	!	!	!	!	!
8e-XJ 8B 8G-X\	16cc\	.	.	.	.	.	.	.	.	.	.
.	16dd\JJ	.	.	.	.	.	.	.	.	.	.
*tremolo	*	*	*	*	*	*	*	*	*	*	*
!LO:SIC:v:s=8e-L 8B- 8G	!	!	!	!	!	!	!	!	!	!	!
8e-L 8B 8G-\	16ee-X\LL	.	.	.	.	.	.	.	.	.	.
.	16ee-\	.	.	.	.	.	.	.	.	.	.
!LO:SIC:v:s=8e- 8B- 8G	!	!	!	!	!	!	!	!	!	!	!
8e- 8B 8G-\	16ee-\	.	.	.	8e-\	-ka	.	.	.	.	.
.	16ee-\JJ	.	.	.	.	.	.	.	.	.	.
!LO:SIC:v:s=8e- 8B- 8G	!	!	!	!	!	!	!	!	!	!	!
8e- 8B 8G-\	(16ee-\LL	.	.	.	8e-\	two-	.	.	.	.	.
.	16ffn\	.	.	.	.	.	.	.	.	.	.
!LO:SIC:v:s=8e- 8B- 8G	!	!	!	!	!	!	!	!	!	!	!
8e- 8B 8G-\	16gg\	.	.	.	8e-\	-ja	.	.	.	.	.
.	16dd\JJ	.	.	.	.	.	.	.	.	.	.
.	(8qff/	.	.	.	.	.	.	.	.	.	.
!LO:SIC:v:s=8e- 8B- 8G	!	!	!	!	!	!	!	!	!	!	!
8e- 8B 8G-\	16ee-\LL)	.	.	.	8e-\	do	.	.	.	.	.
.	16dd\	.	.	.	.	.	.	.	.	.	.
!LO:SIC:v:s=8e-J 8B- 8G	!	!	!	!	!	!	!	!	!	!	!
8e-J 8B 8G-\	16ee-\	.	.	.	8e-\	téj	.	.	.	.	.
.	16gg\JJ)	.	.	.	.	.	.	.	.	.	.
*Xtremolo	*	*	*	*	*	*	*	*	*	*	*
!!LO:LB:g=original
=61	=61	=61	=61	=61	=61	=61	=61	=61	=61	=61	=61
!	!	!	!	!	!LO:TX:a:t=MONBAR.	!	!	!	!	!	!
8D\L	(4ccc^\	.	1ryy	.	4fn\	chwi-	.	.	1ryy	.	.
!LO:SIC:v:s=8fJ 8B- 8A-	!	!	!	!	!	!	!	!	!	!	!
8f#J 8B 8A-X\	.	.	.	.	.	.	.	.	.	.	.
!LO:SIC:v:s=8fL 8B- 8A-	!	!	!	!	!	!	!	!	!	!	!
8f#L 8B 8A-\	16bb-X\LL)	.	.	.	4B-X\	-li	.	.	.	.	.
.	(16ffn\	.	.	.	.	.	.	.	.	.	.
!LO:SIC:v:s=8fJ 8B- 8A-	!	!	!	!	!	!	!	!	!	!	!
8f#J 8B 8A-\	16een\	.	.	.	.	.	.	.	.	.	.
.	16ff\JJ)	.	.	.	.	.	.	.	.	.	.
8E-X\L	(4aa-X^\	.	.	.	4B-\	o-	.	.	.	.	.
!LO:SIC:v:s=8e-J 8B- 8G	!	!	!	!	!	!	!	!	!	!	!
8e-XJ 8B 8G\	.	.	.	.	.	.	.	.	.	.	.
!LO:SIC:v:s=8e-L 8B- 8G	!	!	!	!	!	!	!	!	!	!	!
8e-L 8B 8G\	16gg\LL)	.	.	.	8B-\	-pór	.	.	.	.	.
.	(16dd\	.	.	.	.	.	.	.	.	.	.
!LO:SIC:v:s=8e-J 8B- 8G	!	!	!	!	!	!	!	!	!	!	!
8e-J 8B 8G\	16ee-X\	.	.	.	8B-\	mi-	.	.	.	.	.
.	16gg\JJ)	.	.	.	.	.	.	.	.	.	.
=62	=62	=62	=62	=62	=62	=62	=62	=62	=62	=62	=62
*^	*	*	*	*	*	*	*	*	*	*	*
!LO:N:vis=2	!	!	!	!	!	!	!	!	!	!	!	!
8D\L	2D/	(16gg\LL	.	1ryy	.	8d\	-ło-	.	.	1ryy	.	.
.	.	16ff#X\)	.	.	.	.	.	.	.	.	.	.
8c 8An\	.	16ff#'\	.	.	.	8d\	-ści	.	.	.	.	.
.	.	16ff#'\JJ	.	.	.	.	.	.	.	.	.	.
8c 8A\	.	(16ff#\LL	.	.	.	8d\	sta-	.	.	.	.	.
.	.	16ddd\)	.	.	.	.	.	.	.	.	.	.
8cJ 8A\	.	16ddd'\	.	.	.	8d\	-wia	.	.	.	.	.
.	.	16ddd'\JJ	.	.	.	.	.	.	.	.	.	.
!	!	!LO:TX:b:t=Clar	!	!	!	!	!	!	!	!	!	!
8B-X 8G\	2ryy	(16gg\LL	.	.	.	4G/	méj	.	.	.	.	.
.	.	16aa-X\	.	.	.	.	.	.	.	.	.	.
8r	.	16ffn\	.	.	.	.	.	.	.	.	.	.
.	.	16dd\JJ	.	.	.	.	.	.	.	.	.	.
(4A-X (>4F# (4BB-X\	.	16b-X/LL	.	.	.	4r	.	.	.	.	.	.
.	.	16a-X/	.	.	.	.	.	.	.	.	.	.
.	.	16fn/	.	.	.	.	.	.	.	.	.	.
.	.	16d/JJ)	.	.	.	.	.	.	.	.	.	.
*v	*v	*	*	*	*	*	*	*	*	*	*	*
=63	=63	=63	=63	=63	=63	=63	=63	=63	=63	=63	=63
8GL) 8E-X\))	16e-X/	.	1ryy	.	4B-X\	czy-	.	.	1ryy	.	.
.	16b-X\LL	.	.	.	.	.	.	.	.	.	.
8e-XJ 8B-X 8G\	16cc\	.	.	.	.	.	.	.	.	.	.
.	16dd\JJ	.	.	.	.	.	.	.	.	.	.
*tremolo	*	*	*	*	*	*	*	*	*	*	*
8e-L 8B- 8G\	16ee-X\LL	.	.	.	8B-\	-liż	.	.	.	.	.
.	16ee-\	.	.	.	.	.	.	.	.	.	.
8e- 8B- 8G\	16ee-\	.	.	.	8B-\	się	.	.	.	.	.
.	16ee-\JJ	.	.	.	.	.	.	.	.	.	.
8e- 8B- 8G\	(16ee-\LL	.	.	.	4e-X\	ku	.	.	.	.	.
.	16ffn\	.	.	.	.	.	.	.	.	.	.
8e- 8B- 8G\	16gg\	.	.	.	.	.	.	.	.	.	.
.	16dd\JJ	.	.	.	.	.	.	.	.	.	.
8e- 8B- 8G\	16ff\LL	.	.	.	8e-\	mnie	.	.	.	.	.
.	16ee-\	.	.	.	.	.	.	.	.	.	.
8e-J 8B- 8G\	16dd\	.	.	.	8e-\	jéj	.	.	.	.	.
.	16cc\JJ)	.	.	.	.	.	.	.	.	.	.
*Xtremolo	*	*	*	*	*	*	*	*	*	*	*
!!LO:LB:g=original
=64	=64	=64	=64	=64	=64	=64	=64	=64	=64	=64	=64
!	!	!	!LO:TX:a:t=D. ALONZO.	!	!LO:TX:a:t=MONBAR.	!	!	!	!	!	!
8E-X\L	16r	.	1r	.	4e-X\	wo-	.	.	1ryy	.	.
.	16b-X\LL	.	.	.	.	.	.	.	.	.	.
8e-XJ 8B-X 8G\	16cc\	.	.	.	.	.	.	.	.	.	.
.	16dd\JJ	.	.	.	.	.	.	.	.	.	.
*tremolo	*	*	*	*	*	*	*	*	*	*	*
8e-L 8B- 8G\	16ee-X\LL	.	.	.	8e-\	-la	.	.	.	.	.
.	16ee-\	.	.	.	.	.	.	.	.	.	.
8e- 8B- 8G\	16ee-\	.	.	.	8fn\	przy-	.	.	.	.	.
.	16ee-\JJ	.	.	.	.	.	.	.	.	.	.
8e- 8B- 8G\	(16ee-\LL	.	.	.	4g\	-chy-	.	.	.	.	.
.	16ffn\	.	.	.	.	.	.	.	.	.	.
8e- 8B- 8G\	16gg\	.	.	.	.	.	.	.	.	.	.
.	16dd\JJ	.	.	.	.	.	.	.	.	.	.
.	(8qff/	.	.	.	.	.	.	.	.	.	.
8e- 8B- 8G\	16ee-\LL)	.	.	.	8g\	-li	.	.	.	.	.
.	16dd\	.	.	.	.	.	.	.	.	.	.
8e-J 8B- 8G\	16ee-\	.	.	.	8r	.	.	.	.	.	.
.	16gg\JJ)	.	.	.	.	.	.	.	.	.	.
*Xtremolo	*	*	*	*	*	*	*	*	*	*	*
=65	=65	=65	=65	=65	=65	=65	=65	=65	=65	=65	=65
8Fn\L	8.gg\L	.	1r	.	8fn\	Ty	.	.	1ryy	.	.
8dJ 8B-X\	.	.	.	.	16f\	mi	.	.	.	.	.
.	16ffn\Jk	.	.	.	16f\	sta-	.	.	.	.	.
4d 4B-\	16een\LL	.	.	.	8d\	-now-	.	.	.	.	.
.	16ff\	.	.	.	.	.	.	.	.	.	.
.	16bb-X\	.	.	.	8B-X\	-czo	.	.	.	.	.
.	16ddd\JJ	.	.	.	.	.	.	.	.	.	.
!	!LO:SIC:v:s=(16fffLL	!	!	!	!	!	!	!	!	!	!
8FFn\L	(16fff#\LL	.	.	.	8c\	od-	.	.	.	.	.
.	16eee-X\	.	.	.	.	.	.	.	.	.	.
8eJ 8c 8F\	16ccc\	.	.	.	8c\	-po-	.	.	.	.	.
.	16aa\JJ	.	.	.	.	.	.	.	.	.	.
4e 4c 4F\	16ff\LL	.	.	.	8c\	-wie-	.	.	.	.	.
.	16ee-X\	.	.	.	.	.	.	.	.	.	.
!	!	!	!	!	!LO:SIC:v:s=8F	!	!	!	!	!	!
.	16cc\	.	.	.	8F#/	-dzieć	.	.	.	.	.
.	16a\JJ)	.	.	.	.	.	.	.	.	.	.
=66	=66	=66	=66	=66	=66	=66	=66	=66	=66	=66	=66
!	!	!	!LO:TX:a:i:t=(na stronie do córki)	!	!	!	!	!	!	!	!
(2B-X 2BB-X^\	4b-X\	.	8B-X\	Przy-	4B-X\	chciéj	.	.	1ryy	.	.
.	.	.	16B-\	-stań	.	.	.	.	.	.	.
.	.	.	16B-\	po-	.	.	.	.	.	.	.
.	4r	.	8B-\	-zor-	4r	.	.	.	.	.	.
.	.	.	8B-\	-nie	.	.	.	.	.	.	.
4A 4AA\	2r	.	8A\	Mar-	2r	.	.	.	.	.	.
.	.	.	8A\	-jo	.	.	.	.	.	.	.
4A-X 4AA-X\)	.	.	8A-X\	na	.	.	.	.	.	.	.
.	.	.	8A-\	me	.	.	.	.	.	.	.
!!LO:PB:g=original
=67	=67	=67	=67	=67	=67	=67	=67	=67	=67	=67	=67
.	.	.	8qA-X/	.	.	.	.	.	.	.	.
8G-XL 8GG-X\	16r	.	4G-X\	słowa	1ryy	.	.	.	1ryy	.	.
.	16dd-X\LL	.	.	.	.	.	.	.	.	.	.
8B-XJ 8G- 8D-X\	16ee-X\	.	.	.	.	.	.	.	.	.	.
.	16ffn\JJ	.	.	.	.	.	.	.	.	.	.
*tremolo	*	*	*	*	*	*	*	*	*	*	*
8B-L 8G- 8D-\	16gg-X\LL	.	4r	.	.	.	.	.	.	.	.
.	16gg-\	.	.	.	.	.	.	.	.	.	.
8B- 8G- 8D-\	16gg-\	.	.	.	.	.	.	.	.	.	.
.	16gg-\JJ	.	.	.	.	.	.	.	.	.	.
8B- 8G- 8D-\	(16gg-\LL	.	2r	.	.	.	.	.	.	.	.
.	16aa-X\	.	.	.	.	.	.	.	.	.	.
8B- 8G- 8D-\	16bb-X\	.	.	.	.	.	.	.	.	.	.
.	16ff\JJ	.	.	.	.	.	.	.	.	.	.
8B- 8G- 8D-\	16aa-\LL	.	.	.	.	.	.	.	.	.	.
.	16gg-\	.	.	.	.	.	.	.	.	.	.
8B-J 8G- 8D-\	16ff\	.	.	.	.	.	.	.	.	.	.
.	16ee-\JJ)	.	.	.	.	.	.	.	.	.	.
*Xtremolo	*	*	*	*	*	*	*	*	*	*	*
=68	=68	=68	=68	=68	=68	=68	=68	=68	=68	=68	=68
!	!	!	!LO:TX:a:i:t=(glośno do Monbara)	!	!	!	!	!	!	!	!
8G-XL 8GG-X\	16r	.	4G-X\	O-	1ryy	.	.	.	1ryy	.	.
.	16dd-X\LL	.	.	.	.	.	.	.	.	.	.
8B-XJ 8G- 8D-X\	16ee-X\	.	.	.	.	.	.	.	.	.	.
.	16ffn\JJ	.	.	.	.	.	.	.	.	.	.
*tremolo	*	*	*	*	*	*	*	*	*	*	*
8B-L 8G- 8D-\	16gg-X\LL	.	8G-\	-na	.	.	.	.	.	.	.
.	16gg-\	.	.	.	.	.	.	.	.	.	.
8B- 8G- 8D-\	16gg-\	.	8G-\	ha-	.	.	.	.	.	.	.
.	16gg-\JJ	.	.	.	.	.	.	.	.	.	.
8B- 8G- 8D-\	(16gg-\LL	.	4G-\	-nie-	.	.	.	.	.	.	.
.	16aa-X\	.	.	.	.	.	.	.	.	.	.
8B- 8G- 8D-\	16bb-X\	.	.	.	.	.	.	.	.	.	.
.	16ff\JJ	.	.	.	.	.	.	.	.	.	.
.	(8qaa-/	.	.	.	.	.	.	.	.	.	.
8B- 8G- 8D-\	16gg-\LL)	.	4G-\	-bnéj	.	.	.	.	.	.	.
.	16ff\	.	.	.	.	.	.	.	.	.	.
8B-J 8G- 8D-\	16gg-\	.	.	.	.	.	.	.	.	.	.
.	16bb-\JJ)	.	.	.	.	.	.	.	.	.	.
*Xtremolo	*	*	*	*	*	*	*	*	*	*	*
=69	=69	=69	=69	=69	=69	=69	=69	=69	=69	=69	=69
8FFn\L	(4eee-X^<\	.	8A-X\	chce	1ryy	.	.	.	1ryy	.	.
8c-XJ 8A-X 8D-X\	.	.	8A-\	u-	.	.	.	.	.	.	.
4c- 4A- 4D-\	16ddd-X\LL)	.	8A-\	-ni-	.	.	.	.	.	.	.
.	(16aa-X\	.	.	.	.	.	.	.	.	.	.
.	16ggn\	.	8D-X\	-knąć	.	.	.	.	.	.	.
.	16aa-\JJ	.	.	.	.	.	.	.	.	.	.
8GG-X\L	(4ccc-X^<\)	.	4A-X\	zgu-	.	.	.	.	.	.	.
8B-XJ 8G-X 8D-\	.	.	.	.	.	.	.	.	.	.	.
4B- 4G- 4D-\	16bb\LL)	.	8G-X\	-by	.	.	.	.	.	.	.
.	(16gg-X\	.	.	.	.	.	.	.	.	.	.
.	16ffn\	.	8r	.	.	.	.	.	.	.	.
.	16gg-\JJ)	.	.	.	.	.	.	.	.	.	.
!!LO:LB:g=original
=70	=70	=70	=70	=70	=70	=70	=70	=70	=70	=70	=70
8FFn\L	(4bb-X\	.	4B-X\	Lecz	1ryy	.	.	.	1ryy	.	.
8B-XJ 8Fn 8Dn\	.	.	.	.	.	.	.	.	.	.	.
8B- 8F 8D\	16aa-X\LL)	.	8B-\	do	.	.	.	.	.	.	.
.	16ddn\	.	.	.	.	.	.	.	.	.	.
8r	16ee-X\	.	8B-\	twej	.	.	.	.	.	.	.
.	16een\JJ	.	.	.	.	.	.	.	.	.	.
(2A-X (>2D (2BB-X\	16ggn\LL	.	8B-\	wo-	.	.	.	.	.	.	.
.	16ffn\	.	.	.	.	.	.	.	.	.	.
.	16aa-\	.	8Fn\	-li	.	.	.	.	.	.	.
.	16ff\JJ	.	.	.	.	.	.	.	.	.	.
.	16dd/LL	.	16F\	skło-	.	.	.	.	.	.	.
.	16b/	.	16F\	-nić	.	.	.	.	.	.	.
.	16a-X/	.	16F\	się	.	.	.	.	.	.	.
.	16f#/JJ	.	16F\	go-	.	.	.	.	.	.	.
=71	=71	=71	=71	=71	=71	=71	=71	=71	=71	=71	=71
8GL) 8E-X\))	16e-X/LL	.	4G\	-to-	1ryy	.	.	.	1ryy	.	.
.	16b-X/	.	.	.	.	.	.	.	.	.	.
!LO:SIC:v:s=8e-J 8B- 8G	!	!	!	!	!	!	!	!	!	!	!
8e-XJ 8B 8G\	16cc/	.	.	.	.	.	.	.	.	.	.
.	16dd/JJ	.	.	.	.	.	.	.	.	.	.
*tremolo	*	*	*	*	*	*	*	*	*	*	*
!LO:SIC:v:s=8e-L 8B- 8G	!	!	!	!	!	!	!	!	!	!	!
8e-L 8B 8G\	16ee-X\LL	.	8E-X\	-wa	.	.	.	.	.	.	.
.	16ee-\	.	.	.	.	.	.	.	.	.	.
!LO:SIC:v:s=8e- 8B- 8G	!	!	!	!	!	!	!	!	!	!	!
8e- 8B 8G\	16ee-\	.	8r	.	.	.	.	.	.	.	.
.	16ee-\JJ	.	.	.	.	.	.	.	.	.	.
!LO:SIC:v:s=8e- 8B- 8G	!	!	!	!	!	!	!	!	!	!	!
8e- 8B 8G\	16ee-\LL	.	4G\	je-	.	.	.	.	.	.	.
.	16ffn\	.	.	.	.	.	.	.	.	.	.
!LO:SIC:v:s=8e- 8B- 8G	!	!	!	!	!	!	!	!	!	!	!
8e- 8B 8G\	16gg\	.	.	.	.	.	.	.	.	.	.
.	16dd\JJ	.	.	.	.	.	.	.	.	.	.
!LO:SIC:v:s=8e- 8B- 8G	!	!	!	!	!	!	!	!	!	!	!
8e- 8B 8G\	16ff\LL	.	8G\	-śli	.	.	.	.	.	.	.
.	16ee-\	.	.	.	.	.	.	.	.	.	.
!LO:SIC:v:s=8e-J 8B- 8G	!	!	!	!	!	!	!	!	!	!	!
8e-J 8B 8G\	16dd\	.	8G\	nie-	.	.	.	.	.	.	.
.	16ee-\JJ	.	.	.	.	.	.	.	.	.	.
*Xtremolo	*	*	*	*	*	*	*	*	*	*	*
=72	=72	=72	=72	=72	=72	=72	=72	=72	=72	=72	=72
8AA-X\L	16r	.	4A-X\	-zło-	1ryy	.	.	.	1ryy	.	.
.	16cc\LL	.	.	.	.	.	.	.	.	.	.
8fnJ 8c 8A-X\	16dd\	.	.	.	.	.	.	.	.	.	.
.	16een\JJ	.	.	.	.	.	.	.	.	.	.
8fL 8c 8A-\	16ffn\LL	<	8A-\	-mne	.	.	.	.	.	.	.
.	16gg\	.	.	.	.	.	.	.	.	.	.
8fJ 8c 8A-\	16aa-X\	.	8A-\	po-	.	.	.	.	.	.	.
.	16bb-X\JJ	.	.	.	.	.	.	.	.	.	.
*tremolo	*	*	*	*	*	*	*	*	*	*	*
8f#XL 8e-X 8c 8An\	16ccc\LL	.	4c\	-łą-	.	.	.	.	.	.	.
.	16ccc\	.	.	.	.	.	.	.	.	.	.
8f# 8e- 8c 8A\	16ccc\	.	.	.	.	.	.	.	.	.	.
.	16ccc\JJ	[	.	.	.	.	.	.	.	.	.
8f# 8e- 8c 8A\	16bbn\LL	.	8c\	-czą	.	.	.	.	.	.	.
.	16ccc\	.	.	.	.	.	.	.	.	.	.
8f#J 8e- 8c 8A\	16ddd\	.	8c\	was	.	.	.	.	.	.	.
.	16eee-X\JJ	.	.	.	.	.	.	.	.	.	.
*Xtremolo	*	*	*	*	*	*	*	*	*	*	*
!!LO:LB:g=original
=73	=73	=73	=73	=73	=73	=73	=73	=73	=73	=73	=73
!	!	!	!LO:TX:a:t=D. ALONZO.	!	!LO:TX:a:t=MONBAR.	!	!	!	!	!	!
8BB-X\L	8.eee\L	f	4c\	ślu-	1r	.	.	.	1ryy	.	.
8gJ 8e-X 8B-X\	.	.	.	.	.	.	.	.	.	.	.
.	16bb-X\Jk	.	.	.	.	.	.	.	.	.	.
4g 4e- 4B-\	(16aan\LL	.	8B-X\	-by	.	.	.	.	.	.	.
.	16bb-\	.	.	.	.	.	.	.	.	.	.
.	16ccc\	.	8r	.	.	.	.	.	.	.	.
.	16bb-\JJ)	.	.	.	.	.	.	.	.	.	.
8BB-X\L	8.bb-\L	.	4.B-\	za	.	.	.	.	.	.	.
8e-J 8B- 8G\	.	.	.	.	.	.	.	.	.	.	.
.	16ee-X\Jk	.	.	.	.	.	.	.	.	.	.
4e- 4B- 4G\	(16dd\LL	.	.	.	.	.	.	.	.	.	.
.	16ee-\	.	.	.	.	.	.	.	.	.	.
.	16aa-X\	.	8B-\	trzy	.	.	.	.	.	.	.
.	16gg\JJ)	.	.	.	.	.	.	.	.	.	.
=74	=74	=74	=74	=74	=74	=74	=74	=74	=74	=74	=74
8BB-X\L	(8.gg\L	.	4B-X\	dni	1r	.	.	.	1ryy	.	.
8dJ 8A-X 8Fn\	.	.	.	.	.	.	.	.	.	.	.
.	16ffn\Jk	.	.	.	.	.	.	.	.	.	.
4d 4A- 4F\	16een\LL	.	8B-\	rę-	.	.	.	.	.	.	.
.	16ff\	.	.	.	.	.	.	.	.	.	.
.	16bb-X\	.	8B-\	-kę	.	.	.	.	.	.	.
.	16aa-X\JJ	.	.	.	.	.	.	.	.	.	.
(2A- (>2F (2BB-\	16ff\LL	.	8B-\	od-	.	.	.	.	.	.	.
.	16dd\	.	.	.	.	.	.	.	.	.	.
.	16b-X\	.	8B-\	-da	.	.	.	.	.	.	.
.	16a-X\JJ	.	.	.	.	.	.	.	.	.	.
!	!LO:SIC:v:s=16fLL	!	!	!	!	!	!	!	!	!	!
.	16f#/LL	.	8A-X\	ci	.	.	.	.	.	.	.
.	16d/	.	.	.	.	.	.	.	.	.	.
.	16B-X/	.	8Fn\	Mon-	.	.	.	.	.	.	.
.	16d/JJ)	.	.	.	.	.	.	.	.	.	.
=75	=75	=75	=75	=75	=75	=75	=75	=75	=75	=75	=75
.	.	.	4qqFn/	.	.	.	.	.	.	.	.
2G) 2E-X\))	2e-X/	f >	2E-X\	-barze	4r	.	.	.	1ryy	.	.
.	.	.	.	.	8r	.	.	mf	.	.	.
.	.	.	.	.	8e-X\	Ja-	.	.	.	.	.
!	!	!LO:DY:rj	!	!	!	!	!	!	!	!	!
2E- 2EE-X\	[2e- 2G</	] p	2r	.	4.e-\	-kie-	.	.	.	.	.
.	.	.	.	.	8e-\	-miż	.	.	.	.	.
!!LO:LB:g=original
=76	=76	=76	=76	=76	=76	=76	=76	=76	=76	=76	=76
*^	*	*	*	*	*	*	*	*	*	*	*
!	!	!	!	!	!	!LO:TX:a:t=MONBAR.	!	!	!	!	!	!
2A-X/	2Fn 2FFn\	4e-/]	.	1ryy	.	4e-X\	sło-	.	.	1ryy	.	.
.	.	2.d/	.	.	.	8d\	-wy	.	.	.	.	.
.	.	.	.	.	.	8d\	me	.	.	.	.	.
2An/	2F#X 2FF#X\	.	.	.	.	4d\	szczę-	.	.	.	.	.
.	.	.	.	.	.	8c\	-ście	.	.	.	.	.
.	.	.	.	.	.	8c\	wy-	.	.	.	.	.
*v	*v	*	*	*	*	*	*	*	*	*	*	*
=77	=77	=77	=77	=77	=77	=77	=77	=77	=77	=77	=77
*	*tremolo	*	*	*	*	*	*	*	*	*	*
!	!LO:TX:t=P:problem=mixed beam	!	!	!	!	!	!	!	!	!	!
2G 2GG\	(16Bn</LL	.	1ryy	.	4c\	-ra-	.	.	1ryy	.	.
.	16d\	.	.	.	.	.	.	.	.	.	.
.	16B</	.	.	.	.	.	.	.	.	.	.
.	16d\	.	.	.	.	.	.	.	.	.	.
.	16B</	.	.	.	8Bn\	-żę	.	.	.	.	.
.	16d\	.	.	.	.	.	.	.	.	.	.
!	!LO:TX:b:Bi:t=poco cres-cen-:problem:dynamics with extension lines	!LO:HP:t=poco cres-cen-	!	!	!	!	!	!	!	!	!
.	16B</	<	.	.	8r	.	.	.	.	.	.
.	16d\JJ)	.	.	.	.	.	.	.	.	.	.
2G 2GG\	(16gLL 16d/	.	.	.	4G/	Ach	.	.	.	.	.
.	16B/	.	.	.	.	.	.	.	.	.	.
.	16g 16d/	.	.	.	.	.	.	.	.	.	.
.	16B/	.	.	.	.	.	.	.	.	.	.
.	16g 16d/	.	.	.	8G/	przy-	.	.	.	.	.
.	16B/	.	.	.	.	.	.	.	.	.	.
.	16g 16d/	.	.	.	8G/	-rze-	.	.	.	.	.
.	16B/JJ)	.	.	.	.	.	.	.	.	.	.
=78	=78	=78	=78	=78	=78	=78	=78	=78	=78	=78	=78
2G-X 2GG-X/	16a-XLL 16e-X/	.	1ryy	.	4A-X/	-cze-	.	.	1ryy	.	.
.	16c/	.	.	.	.	.	.	.	.	.	.
.	16a- 16e-/	.	.	.	.	.	.	.	.	.	.
.	16c/	.	.	.	.	.	.	.	.	.	.
.	16a- 16e-/	.	.	.	4A-/	-niem	.	.	.	.	.
.	16c/	.	.	.	.	.	.	.	.	.	.
.	16a- 16e-/	.	.	.	.	.	.	.	.	.	.
.	16c/JJ	.	.	.	.	.	.	.	.	.	.
2Fn 2FFn/	16anLL 16e-/	.	.	.	8An/	po-	.	.	.	.	.
.	16c/	.	.	.	.	.	.	.	.	.	.
.	16a 16e-/	.	.	.	8A/	-twierdź	.	.	.	.	.
.	16c/	.	.	.	.	.	.	.	.	.	.
.	16a 16e-/	.	.	.	8A/	to	.	.	.	.	.
.	16c/	.	.	.	.	.	.	.	.	.	.
.	16a 16e-/	.	.	.	8A/	ła-	.	.	.	.	.
.	16c/JJ	.	.	.	.	.	.	.	.	.	.
!!LO:LB:g=original
=79	=79	=79	=79	=79	=79	=79	=79	=79	=79	=79	=79
.	.	.	.	.	4qqc/	.	.	.	.	.	.
2B-X 2BB-X\	16b-XLL 16fn/	.	1ryy	.	2B-X\	-skawie	.	.	1ryy	.	.
.	16d/	.	.	.	.	.	.	.	.	.	.
.	16b- 16f/	.	.	.	.	.	.	.	.	.	.
.	16d/	.	.	.	.	.	.	.	.	.	.
.	16b- 16f/	.	.	.	.	.	.	.	.	.	.
.	16d/	.	.	.	.	.	.	.	.	.	.
.	16b- 16f/	.	.	.	.	.	.	.	.	.	.
.	16d/JJ	.	.	.	.	.	.	.	.	.	.
*	*	*	*	*	*clefG2	*	*	*	*	*	*
=-	=-	=-	=-	=-	=-	=-	=-	=-	=-	=-	=-
*	*	*	*	*	*ITrd0c0	*	*	*	*	*	*
!	!	!	!	!	!LO:TX:a:t=D. MARJA.	!	!	!	!	!	!
2G 2GG/	16bnLL 16f/	.	.	.	8bn\	Tak	.	.	.	.	.
.	16d/	.	.	.	.	.	.	.	.	.	.
.	16b 16f/	.	.	.	8r	.	.	.	.	.	.
.	16d/	.	.	.	.	.	.	.	.	.	.
.	16b 16f/	.	.	.	8b\	wo-	.	.	.	.	.
.	16d/	.	.	.	.	.	.	.	.	.	.
.	16b 16f/	.	.	.	8b\	-la	.	.	.	.	.
.	16d/JJ	[[	.	.	.	.	.	.	.	.	.
=80	=80	=80	=80	=80	=80	=80	=80	=80	=80	=80	=80
.	.	.	.	.	4qqdd/	.	.	.	.	.	.
2c 2C\	16ccLL 16g/	f	1ryy	.	2cc\	ojca	.	.	1ryy	.	.
.	16e-X/	.	.	.	.	.	.	.	.	.	.
.	16cc 16g/	.	.	.	.	.	.	.	.	.	.
.	16e-/	.	.	.	.	.	.	.	.	.	.
.	16cc 16g/	.	.	.	.	.	.	.	.	.	.
.	16e-/	.	.	.	.	.	.	.	.	.	.
.	16cc 16g/	.	.	.	.	.	.	.	.	.	.
.	16e-/JJ	.	.	.	.	.	.	.	.	.	.
*	*Xtremolo	*	*	*	*	*	*	*	*	*	*
!	!LO:TX:b:i:t=ritenu:dur=2q:ext=cd:problem:text with extension lines	!	!	!	!	!	!	!	!	!	!
4A-X 4AA-X\	4cc 4f#X 4e-/	.	.	.	8ee-X\	świę-	.	.	.	.	.
.	.	.	.	.	8ee-\	-tem	.	.	.	.	.
4r	4r	.	.	.	8dd\	dla	.	.	.	.	.
.	.	.	.	.	8cc\	mnie	.	.	.	.	.
=81	=81	=81	=81	=81	=81	=81	=81	=81	=81	=81	=81
8GG\L	4b 4g 4d/	f	1ryy	.	4g/	pra-	.	.	1ryy	.	.
8BnJ 8G\	.	.	.	.	.	.	.	.	.	.	.
8BL 8G\	16gg'\LL	.	.	.	8g/	-wem	.	.	.	.	.
.	(16gg\	.	.	.	.	.	.	.	.	.	.
8BJ 8G\	16ff#X\	.	.	.	8r	.	.	.	.	.	.
.	16gg\JJ)	.	.	.	.	.	.	.	.	.	.
*tremolo	*	*	*	*	*clefG2	*	*	*	*	*	*
=-	=-	=-	=-	=-	=-	=-	=-	=-	=-	=-	=-
*	*	*	*	*	*ITrd8c12	*	*	*	*	*	*
!	!	!	!	!	!LO:TX:a:t=MONBAR.	!	!	!	!	!	!
16BLL 16G 16Fn\	16bbn'\LL	.	.	.	4g\	Dzię-	.	.	.	.	.
16d\	(16bb\	.	.	.	.	.	.	.	.	.	.
16B 16G 16F\	16aa#X\	.	.	.	.	.	.	.	.	.	.
16d\	16bb\JJ)	.	.	.	.	.	.	.	.	.	.
16B 16G 16F\	16bb'\LL	.	.	.	8g\	-ki	.	.	.	.	.
16d\	(16bb\	.	.	.	.	.	.	.	.	.	.
16B 16G 16F\	16aa#\	.	.	.	8g\	ci	.	.	.	.	.
16d\JJ	16bb\JJ)	.	.	.	.	.	.	.	.	.	.
*Xtremolo	*	*	*	*	*	*	*	*	*	*	*
!!LO:PB:g=original
=82	=82	=82	=82	=82	=82	=82	=82	=82	=82	=82	=82
*tremolo	*	*	*	*	*	*	*	*	*	*	*
!	!	!	!	!	!LO:TX:a:t=MONBAR.	!	!	!	!	!	!
16G 16E\LL	16ccc\LL	.	1ryy	.	4.g\	dzię-	.	.	1ryy	.	.
16c\	16ccc\	.	.	.	.	.	.	.	.	.	.
16G 16E\	16bb\	.	.	.	.	.	.	.	.	.	.
16c\	16ccc\JJ	.	.	.	.	.	.	.	.	.	.
16G 16E\	16ccc\LL	.	.	.	.	.	.	.	.	.	.
16c\	16ccc\	.	.	.	.	.	.	.	.	.	.
16G 16E\	16bb\	.	.	.	8g\	-ki	.	.	.	.	.
16c\JJ	16ccc\JJ	.	.	.	.	.	.	.	.	.	.
*Xtremolo	*	*	*	*	*	*	*	*	*	*	*
16B- 16G 16E-\LL	16ccc#X\LL	.	.	.	(4.g\	Ma-	.	.	.	.	.
16c#\	16ccc#\	.	.	.	.	.	.	.	.	.	.
16B- 16G 16E-\	16bb#X\	.	.	.	.	.	.	.	.	.	.
16c#\JJ	16ccc#\JJ	.	.	.	.	.	.	.	.	.	.
16B- 16G 16E-\LL	16ccc#\LL	.	.	.	.	.	.	.	.	.	.
16c#\	16ccc#\	.	.	.	.	.	.	.	.	.	.
16B- 16G 16E-\	16bb#\	.	.	.	8c#X\)	.	.	.	.	.	.
16c#\JJ	16ccc#\JJ	.	.	.	.	.	.	.	.	.	.
=83	=83	=83	=83	=83	=83	=83	=83	=83	=83	=83	=83
8d 8F# 8D\L	(16ddd\LL	.	1ryy	.	4d\	-rjo!	.	.	1ryy	.	.
.	16ff#\	.	.	.	.	.	.	.	.	.	.
8A 8F# 8D\J	16gg\	.	.	.	.	.	.	.	.	.	.
.	16gg#X\JJ	.	.	.	.	.	.	.	.	.	.
8A 8F# 8D\L	16bb\LL	.	.	.	4r	.	.	.	.	.	.
.	16aa\	.	.	.	.	.	.	.	.	.	.
8A 8F# 8D\J	16ff#\	.	.	.	.	.	.	.	.	.	.
.	16dd\JJ)	.	.	.	.	.	.	.	.	.	.
*tremolo	*	*	*	*	*	*	*	*	*	*	*
8A 8G 8E 8D\L	16r	.	.	.	2r	.	.	.	.	.	.
.	(16cc#X\LL	.	.	.	.	.	.	.	.	.	.
8A 8G 8E 8D\	16dd\	.	.	.	.	.	.	.	.	.	.
.	16dd#X\JJ	.	.	.	.	.	.	.	.	.	.
8A 8G 8E 8D\	16ff#\LL	.	.	.	.	.	.	.	.	.	.
.	16ee\	.	.	.	.	.	.	.	.	.	.
8A 8G 8E 8D\J	16cc#\	.	.	.	.	.	.	.	.	.	.
.	16a\JJ)	.	.	.	.	.	.	.	.	.	.
=84	=84	=84	=84	=84	=84	=84	=84	=84	=84	=84	=84
!	!	!	!	!	!LO:TX:a:i:t=(Wołając)	!	!	!	!	!	!
8A 8F# 8D\L	16r	.	1ryy	.	4f#X\	Bra-	.	.	1ryy	.	.
.	(16ff#\LL	.	.	.	.	.	.	.	.	.	.
8A 8F# 8D\	16gg\	.	.	.	.	.	.	.	.	.	.
.	16gg#X\JJ	.	.	.	.	.	.	.	.	.	.
8A 8F# 8D\	16bb\LL	.	.	.	8d\	-cia!	.	.	.	.	.
.	16aa\	.	.	.	.	.	.	.	.	.	.
8A 8F# 8D\J	16ff#\	.	.	.	8r	.	.	.	.	.	.
.	16dd\JJ)	.	.	.	.	.	.	.	.	.	.
8A 8G 8E 8D\L	16r	.	.	.	4.en\	przy-	.	.	.	.	.
.	(16cc#X\LL	.	.	.	.	.	.	.	.	.	.
8A 8G 8E 8D\	16dd\	.	.	.	.	.	.	.	.	.	.
.	16dd#X\JJ	.	.	.	.	.	.	.	.	.	.
8A 8G 8E 8D	16ff#\LL	.	.	.	.	.	.	.	.	.	.
.	16ee\	.	.	.	.	.	.	.	.	.	.
8A 8G 8E 8D\J	16cc#\	.	.	.	8A/	-ja-	.	.	.	.	.
.	16a\JJ)	.	.	.	.	.	.	.	.	.	.
*Xtremolo	*	*	*	*	*	*	*	*	*	*	*
!!LO:LB:g=original
=85	=85	=85	=85	=85	=85	=85	=85	=85	=85	=85	=85
8AL 8F# 8D\	16bb\LL	.	1ryy	.	(4f#X\	-cie-	.	.	1ryy	.	.
.	16aa\	.	.	.	.	.	.	.	.	.	.
8AJ 8F# 8D\	16ff#\	.	.	.	.	.	.	.	.	.	.
.	16dd\JJ	.	.	.	.	.	.	.	.	.	.
8AL 8G 8E 8D\	16ff#\LL	.	.	.	4e\)	.	.	.	.	.	.
.	16ee\	.	.	.	.	.	.	.	.	.	.
8AJ 8G 8E 8D\	16cc#X\	.	.	.	.	.	.	.	.	.	.
.	16a\JJ	.	.	.	.	.	.	.	.	.	.
8AL 8F# 8D\	16bb\LL	.	.	.	8d\	-le	.	.	.	.	.
.	16aa\	.	.	.	.	.	.	.	.	.	.
8AJ 8F# 8D\	16ff#\	.	.	.	8r	.	.	.	.	.	.
.	16dd\JJ	.	.	.	.	.	.	.	.	.	.
8AL 8G 8E 8D\	16ff#\LL	.	.	.	4r	.	.	.	.	.	.
.	16ee\	.	.	.	.	.	.	.	.	.	.
8AJ 8G 8E 8D\	16cc#\	.	.	.	.	.	.	.	.	.	.
.	16a\JJ	.	.	.	.	.	.	.	.	.	.
=86	=86	=86	=86	=86	=86	=86	=86	=86	=86	=86	=86
8AL 8F# 8D\	16bb\LL	.	1ryy	.	1r	.	.	.	1ryy	.	.
.	16aa\	.	.	.	.	.	.	.	.	.	.
8AJ 8F# 8D\	16ff#\	.	.	.	.	.	.	.	.	.	.
.	16dd\JJ	.	.	.	.	.	.	.	.	.	.
8AL 8G 8E 8D\	16ff#\LL	.	.	.	.	.	.	.	.	.	.
.	16ee\	.	.	.	.	.	.	.	.	.	.
8AJ 8G 8E 8D\	16cc#X\	.	.	.	.	.	.	.	.	.	.
.	16a\JJ	.	.	.	.	.	.	.	.	.	.
8AL 8F# 8D\	16bb\LL	.	.	.	.	.	.	.	.	.	.
.	16aa\	.	.	.	.	.	.	.	.	.	.
8AJ 8F# 8D\	16ff#\	.	.	.	.	.	.	.	.	.	.
.	16dd\JJ	.	.	.	.	.	.	.	.	.	.
8AL 8G 8E 8D\	16ff#\LL	.	.	.	.	.	.	.	.	.	.
.	16ee\	.	.	.	.	.	.	.	.	.	.
8AJ 8G 8E 8D\	16cc#\	.	.	.	.	.	.	.	.	.	.
.	16a\JJ	.	.	.	.	.	.	.	.	.	.
!!LO:LB:g=original
=87|!	=87|!	=87|!	=87|!	=87|!	=87|!	=87|!	=87|!	=87|!	=87|!	=87|!	=87|!
!!!OMD: Presto ma non troppo.
*M6/8	*M6/8	*	*M6/8	*	*M6/8	*	*	*	*M6/8	*	*
!	!	!	!	!	!LO:TX:a:t=MONBAR	!	!	!	!	!	!
4F# 4D\	4dd\	.	2.ryy	.	2.r	.	.	.	2.ryy	.	.
8d 8D\	8ddd 8dd\	.	.	.	.	.	.	.	.	.	.
4d 4D\	4ddd 4dd\	.	.	.	.	.	.	.	.	.	.
!	!	!	!	!	!LO:TX:a:i:t=(Wchodzi Perez a za nim kilku Flibustierów)	!	!	!	!	!	!
8d 8D\	8ddd 8dd\	.	.	.	.	.	.	.	.	.	.
=88	=88	=88	=88	=88	=88	=88	=88	=88	=88	=88	=88
4d 4D\	4ddd 4dd\	.	2.ryy	.	2.r	.	.	.	2.ryy	.	.
8d 8D\	8ddd 8dd\	.	.	.	.	.	.	.	.	.	.
4d 4D\	4ddd 4dd\	.	.	.	.	.	.	.	.	.	.
8d 8D\	8ddd 8dd\	.	.	.	.	.	.	.	.	.	.
=89	=89	=89	=89	=89	=89	=89	=89	=89	=89	=89	=89
4d 4D\	4ddd 4dd\	.	2.ryy	.	2.r	.	.	.	2.ryy	.	.
8d 8D\	8ddd 8dd\	.	.	.	.	.	.	.	.	.	.
4d 4D\	4ddd 4dd\	.	.	.	.	.	.	.	.	.	.
8d 8D\	8ddd 8dd\	.	.	.	.	.	.	.	.	.	.
=90	=90	=90	=90	=90	=90	=90	=90	=90	=90	=90	=90
8dL 8D\	8dddL 8dd\	.	2.ryy	.	2.r	.	.	.	2.ryy	.	.
8e 8E\	8eee 8ee\	.	.	.	.	.	.	.	.	.	.
!	!	!	!	!	!LO:TX:a:i:t=(do PEREZA)	!	!	!	!	!	!
8BJ 8BB\	8bbJ 8b\	.	.	.	.	.	.	.	.	.	.
!LO:SIC:v:s=8cL 8C	!	!	!	!	!	!	!	!	!	!	!
8BL 8C\	8cccL 8cc\	.	.	.	.	.	.	.	.	.	.
8A 8AA\	8aa 8a\	.	.	.	.	.	.	.	.	.	.
8dJ 8D\	8dddJ 8dd\	.	.	.	.	.	.	.	.	.	.
=91	=91	=91	=91	=91	=91	=91	=91	=91	=91	=91	=91
!	!	!	!	!	!LO:TX:a:i:t=(z uczuciem radości)	!	!	!LO:DY:b:rj	!	!	!
4G 4GG/	8gg 8g\	.	2.ryy	.	4.g^^\	Więc	.	sf	2.ryy	.	.
.	8d/L	.	.	.	.	.	.	.	.	.	.
8r	8g/J	.	.	.	.	.	.	.	.	.	.
4G 4D 4BB\	8B/L	.	.	.	4f#\	się	.	.	.	.	.
.	8d/	.	.	.	.	.	.	.	.	.	.
8r	8g/J	.	.	.	8e\	speł-	.	.	.	.	.
=92	=92	=92	=92	=92	=92	=92	=92	=92	=92	=92	=92
4GG/	8B/L	.	2.ryy	.	4.e\	-nia-	.	.	2.ryy	.	.
.	8d/	.	.	.	.	.	.	.	.	.	.
8r	8g/J	.	.	.	.	.	.	.	.	.	.
4G 4D 4BB\	8B/L	.	.	.	4.d\	-ją	.	.	.	.	.
.	8d/	.	.	.	.	.	.	.	.	.	.
8r	8g/J	.	.	.	.	.	.	.	.	.	.
!!LO:LB:g=original
=93	=93	=93	=93	=93	=93	=93	=93	=93	=93	=93	=93
4EE/	8d/L	.	2.ryy	.	(4e\	bło-	.	.	2.ryy	.	.
.	8e/	.	.	.	.	.	.	.	.	.	.
8r	8g#X/J	.	.	.	8d\)	-gich	.	.	.	.	.
4B 4E 4D\	8d/L	.	.	.	(4c\	snów	.	.	.	.	.
.	8e/	.	.	.	.	.	.	.	.	.	.
8r	8g#/J	.	.	.	8B\)	ma-	.	.	.	.	.
=94	=94	=94	=94	=94	=94	=94	=94	=94	=94	=94	=94
4AA/	8a/L	.	2.ryy	.	(4.c\	-rze-	.	.	2.ryy	.	.
.	8e/	.	.	.	.	.	.	.	.	.	.
8r	8c/J	.	.	.	.	.	.	.	.	.	.
4A 4E 4C\	8c/L	.	.	.	4A/)	-nia	.	.	.	.	.
.	8e/	.	.	.	.	.	.	.	.	.	.
8r	8a/J	.	.	.	8r	.	.	.	.	.	.
=95	=95	=95	=95	=95	=95	=95	=95	=95	=95	=95	=95
4DD/	8c/L	.	2.ryy	.	4.c\	ży-	.	.	2.ryy	.	.
.	8d/	.	.	.	.	.	.	.	.	.	.
8r	8f#/J	.	.	.	.	.	.	.	.	.	.
4A 4F# 4D\	8c/L	.	.	.	4B\	-cia	.	.	.	.	.
.	8d/	.	.	.	.	.	.	.	.	.	.
8r	8f#/J	.	.	.	8A/	no-	.	.	.	.	.
=96	=96	=96	=96	=96	=96	=96	=96	=96	=96	=96	=96
4G 4GG/	8B/L	.	2.ryy	.	4.B\	-we-	.	<	2.ryy	.	.
.	8d/	.	.	.	.	.	.	.	.	.	.
8r	8g/J	.	.	.	.	.	.	.	.	.	.
4E 4EE/	8B/L	.	.	.	4.g\	-go	.	[	.	.	.
.	8e/	.	.	.	.	.	.	.	.	.	.
8r	8g/J	.	.	.	.	.	.	.	.	.	.
=97	=97	=97	=97	=97	=97	=97	=97	=97	=97	=97	=97
4AA/	8A/L	.	2.ryy	.	4f#\	blask	.	>	2.ryy	.	.
.	8d/	.	.	.	.	.	.	.	.	.	.
8r	8f#/J	.	.	.	8e\	mnie	.	.	.	.	.
4A 4E 4C#X 4AA\	8A/L	.	.	.	4d\	o-	.	.	.	.	.
.	8e/	.	.	.	.	.	.	.	.	.	.
8r	8g/J	.	.	.	8c#X\	-pro-	.	]	.	.	.
=98	=98	=98	=98	=98	=98	=98	=98	=98	=98	=98	=98
4DD/	8A/L	.	2.ryy	.	4.e^\	-mie-	.	.	2.ryy	.	.
.	8d/	.	.	.	.	.	.	.	.	.	.
8r	8f#/J	.	.	.	.	.	.	.	.	.	.
4F# 4D 4C\	8A/L	.	.	.	4d\	-nia	.	.	.	.	.
.	8d/	.	.	.	.	.	.	.	.	.	.
8r	8f#/J	.	.	.	8r	.	.	.	.	.	.
!!LO:LB:g=original
=99	=99	=99	=99	=99	=99	=99	=99	=99	=99	=99	=99
!	!	!	!	!	!	!	!	!LO:DY:rj	!	!	!
4GG/	8B/L	.	2.ryy	.	4.g^^\	Trzy	.	sf	2.ryy	.	.
.	8d/	.	.	.	.	.	.	.	.	.	.
8r	8g/J	.	.	.	.	.	.	.	.	.	.
4G 4D 4BB\	8B/L	.	.	.	4f#\	dni	.	.	.	.	.
.	8d/	.	.	.	.	.	.	.	.	.	.
8r	8g/J	.	.	.	8e\	od	.	.	.	.	.
=100	=100	=100	=100	=100	=100	=100	=100	=100	=100	=100	=100
4GG/	8B/L	.	2.ryy	.	4.e\	szczę-	.	.	2.ryy	.	.
.	8d/	.	.	.	.	.	.	.	.	.	.
8r	8g/J	.	.	.	.	.	.	.	.	.	.
4G 4D 4BB\	8B/L	.	.	.	4.d\	-ścia	.	.	.	.	.
.	8d/	.	.	.	.	.	.	.	.	.	.
8r	8g/J	.	.	.	.	.	.	.	.	.	.
=101	=101	=101	=101	=101	=101	=101	=101	=101	=101	=101	=101
4EE/	8d/L	.	2.ryy	.	(4e\	wo-	.	.	2.ryy	.	.
.	8e/	.	.	.	.	.	.	.	.	.	.
8r	8g#X/J	.	.	.	8d\)	-dza	.	.	.	.	.
4B 4E 4D\	8d/L	.	.	.	(4c\	twe-	.	.	.	.	.
.	8e/	.	.	.	.	.	.	.	.	.	.
8r	8g#/J	.	.	.	8B\)	-go	.	.	.	.	.
=102	=102	=102	=102	=102	=102	=102	=102	=102	=102	=102	=102
4AA/	8a/L	.	2.ryy	.	(4.c\	dzie-	.	.	2.ryy	.	.
.	8e/	.	.	.	.	.	.	.	.	.	.
8r	8c/J	.	.	.	.	.	.	.	.	.	.
4A 4E 4C\	8c/L	.	.	.	4.A/)	-li	.	.	.	.	.
.	8e/	.	.	.	.	.	.	.	.	.	.
8r	8a/J	.	.	.	.	.	.	.	.	.	.
=103	=103	=103	=103	=103	=103	=103	=103	=103	=103	=103	=103
(4.D 4.DD/	8c/L	.	2.ryy	.	4.c^\	Niech	.	.	2.ryy	.	.
.	8d/	.	.	.	.	.	.	.	.	.	.
.	8f#/J	.	.	.	.	.	.	.	.	.	.
4.D#X 4.DD#X/	8c/L	.	.	.	(4B\	się	.	.	.	.	.
.	8f#/	.	.	.	.	.	.	.	.	.	.
.	8a/J	.	.	.	8A/)	tu	.	.	.	.	.
=104	=104	=104	=104	=104	=104	=104	=104	=104	=104	=104	=104
4E 4EE/)	8B/L	.	2.ryy	.	(4B\	wszy-	.	.	2.ryy	.	.
.	8e/	.	.	.	.	.	.	.	.	.	.
8r	8g/J	.	.	.	8G/)	.	.	.	.	.	.
4C/	8c/L	.	.	.	4E/	-stko	.	.	.	.	.
.	8e/	.	.	.	.	.	.	.	.	.	.
8r	8a/J	.	.	.	8A/	we-	.	.	.	.	.
!!LO:PB:g=original
=105	=105	=105	=105	=105	=105	=105	=105	=105	=105	=105	=105
4D\	8B/L	.	2.ryy	.	(>4.G/	-se-	.	>	2.ryy	.	.
.	8d/	.	.	.	.	.	.	.	.	.	.
8r	8g/J	.	.	.	.	.	.	.	.	.	.
4D\	8c/L	.	.	.	4.F#/	.	.	.	.	.	.
.	8d/	.	.	.	.	.	.	.	.	.	.
8r	8f#/J	.	.	.	.	.	.	.	.	.	.
=106	=106	=106	=106	=106	=106	=106	=106	=106	=106	=106	=106
4GG/	8B/L	.	2.ryy	.	4G/)	-li	.	]	2.ryy	.	.
.	8d/	.	.	.	.	.	.	.	.	.	.
8r	8g/J	.	.	.	8r	.	.	.	.	.	.
4r	8B/L	.	.	.	4r	.	.	.	.	.	.
.	8d/	.	.	.	.	.	.	.	.	.	.
8r	8g/J	.	.	.	8G/	po-	.	<	.	.	.
=107	=107	=107	=107	=107	=107	=107	=107	=107	=107	=107	=107
*^	*	*	*	*	*	*	*	*	*	*	*
4r	(2.C\	8c/L	.	2.ryy	.	4.e\	-to-	.	[	2.ryy	.	.
.	.	8e/	.	.	.	.	.	.	.	.	.	.
8r	.	8g/J	.	.	.	.	.	.	.	.	.	.
4G 4E/	.	8c/L	.	.	.	4.e\	-ki	.	.	.	.	.
.	.	8e/	.	.	.	.	.	.	.	.	.	.
8r	.	8g/J	.	.	.	.	.	.	.	.	.	.
=108	=108	=108	=108	=108	=108	=108	=108	=108	=108	=108	=108	=108
4r	4GG\)	8B/L	.	2.ryy	.	(4.d\	wi-	.	.	2.ryy	.	.
.	.	8d/	.	.	.	.	.	.	.	.	.	.
8r	8ryy	8g/J	.	.	.	.	.	.	.	.	.	.
4G 4D 4BB/	4r	8B/L	.	.	.	4.G/)	-na	.	.	.	.	.
.	.	8d/	.	.	.	.	.	.	.	.	.	.
8rA	8r	8g/J	.	.	.	.	.	.	.	.	.	.
=109	=109	=109	=109	=109	=109	=109	=109	=109	=109	=109	=109	=109
4r	(2.C\	8c/L	.	2.ryy	.	4e\	u-	.	.	2.ryy	.	.
.	.	8e/	.	.	.	.	.	.	.	.	.	.
8r	.	8g/J	.	.	.	8e\	-czty	.	.	.	.	.
4G 4E/	.	8c/L	.	.	.	4e\	hoj-	.	.	.	.	.
.	.	8e/	.	.	.	.	.	.	.	.	.	.
8r	.	8g/J	.	.	.	8e\	-ne	.	.	.	.	.
=110	=110	=110	=110	=110	=110	=110	=110	=110	=110	=110	=110	=110
4r	4GG\)	8B/L	.	2.ryy	.	(4.d\	da-	.	.	2.ryy	.	.
.	.	8d/	.	.	.	.	.	.	.	.	.	.
8rA	8r	8g/J	.	.	.	.	.	.	.	.	.	.
4G 4D 4BB/	4r	8B/L	.	.	.	4G/)	-ry	.	.	.	.	.
.	.	8d/	.	.	.	.	.	.	.	.	.	.
8rA	8r	8g/J	.	.	.	8r	.	.	.	.	.	.
!!LO:LB:g=original
=111	=111	=111	=111	=111	=111	=111	=111	=111	=111	=111	=111	=111
4.BB/	8BB\L	[4.gg\	.	2.ryy	.	[4.g^^\	nie	.	.	2.ryy	.	.
.	8D\	.	.	.	.	.	.	.	.	.	.	.
.	8G\J	.	.	.	.	.	.	.	.	.	.	.
4.BB/	8BB\L	4gg\]	.	.	.	4g\]	.	.	.	.	.	.
.	8D\	.	.	.	.	.	.	.	.	.	.	.
.	8G\J	8b\	.	.	.	8B\	skąp	.	.	.	.	.
=112	=112	=112	=112	=112	=112	=112	=112	=112	=112	=112	=112	=112
4.C/	8C\L	(4.b^\	.	2.ryy	.	(4.B\	rę-	.	.	2.ryy	.	.
.	8E\	.	.	.	.	.	.	.	.	.	.	.
.	8G\J	.	.	.	.	.	.	.	.	.	.	.
4.C/	8C\L	4a/)	.	.	.	4A/)	-ki	.	.	.	.	.
.	8E\	.	.	.	.	.	.	.	.	.	.	.
.	8G\J	8r	.	.	.	8A^>/	szczo-	.	.	.	.	.
=113	=113	=113	=113	=113	=113	=113	=113	=113	=113	=113	=113	=113
4.C#X/	8C#\L	(4bb 4b^<\	.	2.ryy	.	4B^\	-dre-	.	.	2.ryy	.	.
.	8E\	.	.	.	.	.	.	.	.	.	.	.
.	8A\J	8aa 8a\)	.	.	.	8A/	-mi	.	.	.	.	.
4.C#/	8C#\L	(4bb 4b^<\	.	.	.	4B^\	darz	.	.	.	.	.
.	8E\	.	.	.	.	.	.	.	.	.	.	.
.	8A\J	8aa 8a\)	.	.	.	8A/	o-	.	.	.	.	.
=114	=114	=114	=114	=114	=114	=114	=114	=114	=114	=114	=114	=114
4.D/	8D\L	(4.aa 4.a\	.	2.ryy	.	4.A/	-fia-	.	>	2.ryy	.	.
.	8F#\	.	.	.	.	.	.	.	.	.	.	.
.	8A\J	.	.	.	.	.	.	.	.	.	.	.
4.D/	8D\L	4dd 4d/)	.	.	.	4D/	-ry	.	.	.	.	.
.	8F#\	.	.	.	.	.	.	.	.	.	.	.
.	8c\J	8r	.	.	.	8r	.	.	]	.	.	.
*v	*v	*	*	*	*	*	*	*	*	*	*	*
=115	=115	=115	=115	=115	=115	=115	=115	=115	=115	=115	=115
4G\	8B/L	.	2.ryy	.	4.g^^\	Trzy	.	.	2.ryy	.	.
.	8d/	.	.	.	.	.	.	.	.	.	.
8r	8g/J	.	.	.	.	.	.	.	.	.	.
4G\	8B/L	.	.	.	4f#\	dni	.	.	.	.	.
.	8d/	.	.	.	.	.	.	.	.	.	.
8r	8g/J	.	.	.	8e\	od	.	.	.	.	.
=116	=116	=116	=116	=116	=116	=116	=116	=116	=116	=116	=116
4GG/	8B/L	.	2.ryy	.	4.e\	szczę-	.	.	2.ryy	.	.
.	8d/	.	.	.	.	.	.	.	.	.	.
8r	8g/J	.	.	.	.	.	.	.	.	.	.
4G 4D 4BB\	8B/L	.	.	.	4.d\	-ścia	.	.	.	.	.
.	8d/	.	.	.	.	.	.	.	.	.	.
8r	8g/J	.	.	.	.	.	.	.	.	.	.
!!LO:LB:g=original
=117	=117	=117	=117	=117	=117	=117	=117	=117	=117	=117	=117
4EE/	8d/L	.	2.ryy	.	4e\	wo-	.	.	2.ryy	.	.
.	8e/	.	.	.	.	.	.	.	.	.	.
8r	8g#X/J	.	.	.	8d\	-dza	.	.	.	.	.
4B 4E 4D\	8d/L	.	.	.	4c\	twe-	.	.	.	.	.
.	8e/	.	.	.	.	.	.	.	.	.	.
8r	8g#/J	.	.	.	8B\	-go	.	.	.	.	.
=118	=118	=118	=118	=118	=118	=118	=118	=118	=118	=118	=118
4AA/	8c/L	.	2.ryy	.	(4.c\	dzie-	.	.	2.ryy	.	.
.	8e/	.	.	.	.	.	.	.	.	.	.
8r	8a/J	.	.	.	.	.	.	.	.	.	.
4A 4E 4C\	8c/L	.	.	.	4A/)	-li	.	.	.	.	.
.	8e/	.	.	.	.	.	.	.	.	.	.
8r	8a/J	.	.	.	8r	.	.	.	.	.	.
=119	=119	=119	=119	=119	=119	=119	=119	=119	=119	=119	=119
(4.D 4.DD/	8c/L	.	2.ryy	.	4.c\	Niech	.	.	2.ryy	.	.
.	8f#/	.	.	.	.	.	.	.	.	.	.
.	8a/J	.	.	.	.	.	.	.	.	.	.
4.D#X 4.DD#X/	8c/L	.	.	.	(4B\	się	.	.	.	.	.
.	8f#/	.	.	.	.	.	.	.	.	.	.
.	8a/J	.	.	.	8A/)	tu	.	.	.	.	.
=120	=120	=120	=120	=120	=120	=120	=120	=120	=120	=120	=120
4E 4EE/)	8B/L	.	2.ryy	.	(4B\	wszy-	.	.	2.ryy	.	.
.	8e/	.	.	.	.	.	.	.	.	.	.
8r	8g/J	.	.	.	8G/)	.	.	.	.	.	.
4C/	8c/L	.	.	.	4E/	-stko	.	.	.	.	.
.	8e/	.	.	.	.	.	.	.	.	.	.
8r	8a/J	.	.	.	8A/	we-	.	.	.	.	.
=121	=121	=121	=121	=121	=121	=121	=121	=121	=121	=121	=121
4D\	8B/L	.	2.ryy	.	(4.G/	-se-	.	.	2.ryy	.	.
.	8d/	.	.	.	.	.	.	.	.	.	.
8r	8g/J	.	.	.	.	.	.	.	.	.	.
4D\	8c/L	.	.	.	4.F#/)	.	.	.	.	.	.
.	8d/	.	.	.	.	.	.	.	.	.	.
8r	8f#/J	.	.	.	.	.	.	.	.	.	.
=122	=122	=122	=122	=122	=122	=122	=122	=122	=122	=122	=122
4GG/	8B/L	.	2.ryy	.	4G/	-li	.	.	2.ryy	.	.
.	8d/	.	.	.	.	.	.	.	.	.	.
8r	8g/J	.	.	.	8r	.	.	.	.	.	.
4r	8B/L	.	.	.	4r	.	.	.	.	.	.
.	8d/	.	.	.	.	.	.	.	.	.	.
8r	8g/J	.	.	.	8r	.	.	.	.	.	.
!!LO:LB:g=original
=123	=123	=123	=123	=123	=123	=123	=123	=123	=123	=123	=123
4F#\	8A/L	.	2.ryy	.	4.A/	W_na-	.	.	2.ryy	.	.
.	8d/	.	.	.	.	.	.	.	.	.	.
8r	8a/J	.	.	.	.	.	.	.	.	.	.
4r	8A/L	.	.	.	4A/	-szej	.	.	.	.	.
.	8d/	.	.	.	.	.	.	.	.	.	.
8r	8a/J	.	.	.	8A/	u-	.	.	.	.	.
=124	=124	=124	=124	=124	=124	=124	=124	=124	=124	=124	=124
4E\	8A/L	.	2.ryy	.	4.B\	-stro-	.	.	2.ryy	.	.
.	8c#X/	.	.	.	.	.	.	.	.	.	.
8r	8g/J	.	.	.	.	.	.	.	.	.	.
4r	8A/L	.	.	.	4A/	-ni	.	.	.	.	.
.	8c#/	.	.	.	.	.	.	.	.	.	.
8r	8g/J	.	.	.	8r	.	.	.	.	.	.
=125	=125	=125	=125	=125	=125	=125	=125	=125	=125	=125	=125
4AA/	8A/L	.	2.ryy	.	4A/	to-	.	<	2.ryy	.	.
.	8c#X/	.	.	.	.	.	.	.	.	.	.
8r	8g/J	.	.	.	8A/	-wa-	.	.	.	.	.
4r	8A/L	.	.	.	4A/	-rzy-	.	.	.	.	.
.	8c#/	.	.	.	.	.	.	.	.	.	.
8r	8g/J	.	.	.	8A/	-sze	.	[	.	.	.
=126	=126	=126	=126	=126	=126	=126	=126	=126	=126	=126	=126
4D\	8A/L	.	2.ryy	.	4.f#\	dziel-	.	>	2.ryy	.	.
.	8d/	.	.	.	.	.	.	.	.	.	.
8r	8f#/J	.	.	.	.	.	.	.	.	.	.
4r	8A/L	.	.	.	4d\	-ni	.	]	.	.	.
.	8d/	.	.	.	.	.	.	.	.	.	.
8r	8f#/J	.	.	.	8r	.	.	.	.	.	.
=127	=127	=127	=127	=127	=127	=127	=127	=127	=127	=127	=127
4F# 4FF#/	8A/L	.	2.ryy	.	4.A/	niech	.	<	2.ryy	.	.
.	8d/	.	.	.	.	.	.	.	.	.	.
8r	8a/J	.	.	.	.	.	.	.	.	.	.
4A 4F#\	8A/L	.	.	.	4A/	się	.	.	.	.	.
.	8d/	.	.	.	.	.	.	.	.	.	.
8r	8a/J	.	.	.	8A/	tak	.	[	.	.	.
=128	=128	=128	=128	=128	=128	=128	=128	=128	=128	=128	=128
4E 4EE/	8A/L	.	2.ryy	.	4.B\	wiel-	.	>	2.ryy	.	.
.	8c#X/	.	.	.	.	.	.	.	.	.	.
8r	8g/J	.	.	.	.	.	.	.	.	.	.
4G 4E\	8A/L	.	.	.	4A/	-ki	.	]	.	.	.
.	8c#/	.	.	.	.	.	.	.	.	.	.
8r	8g/J	.	.	.	8r	.	.	.	.	.	.
!!LO:LB:g=original
=129	=129	=129	=129	=129	=129	=129	=129	=129	=129	=129	=129
4AA/	8A/L	.	2.ryy	.	4g\	dzień	.	.	2.ryy	.	.
.	8c#X/	.	.	.	.	.	.	.	.	.	.
8r	8g/J	.	.	.	8g\	u-	.	.	.	.	.
4AA/	8A/L	.	.	.	4f#\	-nie-	.	.	.	.	.
.	8c#/	.	.	.	.	.	.	.	.	.	.
8r	8g/J	.	.	.	8e\	-śmier-	.	.	.	.	.
=130	=130	=130	=130	=130	=130	=130	=130	=130	=130	=130	=130
4D\	4f# 4d 4A/	.	2.ryy	.	4.d\	-tel-	.	.	2.ryy	.	.
8r	8r	.	.	.	.	.	.	.	.	.	.
.	.	.	.	.	16qqf#/LL	.	.	.	.	.	.
.	.	.	.	.	16qqe/JJ	.	.	.	.	.	.
4r;	4r;	.	.	.	(4.d;\	-ni	.	<	.	.	.
8r	8r	.	.	.	.	.	.	.	.	.	.
=131	=131	=131	=131	=131	=131	=131	=131	=131	=131	=131	=131
4G 4D 4BB 4GG/	8B/L	.	2.ryy	.	4.g\)	Trzy	.	[ f	2.ryy	.	.
.	8d/	.	.	.	.	.	.	.	.	.	.
8r	8g/J	.	.	.	.	.	.	.	.	.	.
4G 4D 4BB 4GG/	8B/L	.	.	.	4f#\	dni	.	.	.	.	.
.	8d/	.	.	.	.	.	.	.	.	.	.
8r	8g/J	.	.	.	8e\	od	.	.	.	.	.
=132	=132	=132	=132	=132	=132	=132	=132	=132	=132	=132	=132
4G 4D 4BB 4GG/	8B/L	.	2.ryy	.	4.e^\	szczę-	.	.	2.ryy	.	.
.	8d/	.	.	.	.	.	.	.	.	.	.
8r	8g/J	.	.	.	.	.	.	.	.	.	.
4G 4D 4BB 4GG/	8B/L	.	.	.	4.d\	-ścia	.	.	.	.	.
.	8d/	.	.	.	.	.	.	.	.	.	.
8r	8g/J	.	.	.	.	.	.	.	.	.	.
=133	=133	=133	=133	=133	=133	=133	=133	=133	=133	=133	=133
!LO:SIC:v:s=4E 4BB 4GG#X 4EE	!	!	!	!	!	!	!	!	!	!	!
4E 4BB 4GG#X 4FF#/	8d/L	.	2.ryy	.	4e\	wo-	.	.	2.ryy	.	.
.	8e/	.	.	.	.	.	.	.	.	.	.
8r	8g#X/J	.	.	.	8d\	-dza	.	.	.	.	.
!LO:SIC:v:s=4E 4BB 4GG#X 4EE	!	!	!	!	!	!	!	!	!	!	!
4E 4BB 4GG# 4FF#/	8d/L	.	.	.	4c\	twe-	.	.	.	.	.
.	8e/	.	.	.	.	.	.	.	.	.	.
8r	8g#/J	.	.	.	8B\	-go	.	.	.	.	.
=134	=134	=134	=134	=134	=134	=134	=134	=134	=134	=134	=134
4A 4E 4C 4AA\	8c/L	.	2.ryy	.	(4.c\	dzie-	.	.	2.ryy	.	.
.	8e/	.	.	.	.	.	.	.	.	.	.
8r	8a/J	.	.	.	.	.	.	.	.	.	.
4A 4E 4C 4AA\	8c/L	.	.	.	4A/)	-li	.	.	.	.	.
.	8e/	.	.	.	.	.	.	.	.	.	.
8r	8a/J	.	.	.	8r	.	.	.	.	.	.
!!LO:PB:g=original
=135	=135	=135	=135	=135	=135	=135	=135	=135	=135	=135	=135
(4.D 4.DD/	8c/L	.	2.ryy	.	(4.c\	Niech	.	.	2.ryy	.	.
.	8f#/	.	.	.	.	.	.	.	.	.	.
.	8a/J	.	.	.	.	.	.	.	.	.	.
4.D#X 4.DD#X/	8c/L	.	.	.	4B\)	się	.	.	.	.	.
.	8f#/	.	.	.	.	.	.	.	.	.	.
.	8a/J	.	.	.	8A/	tu	.	.	.	.	.
=136	=136	=136	=136	=136	=136	=136	=136	=136	=136	=136	=136
4E 4EE/)	8B/L	.	2.ryy	.	(4B\	wszy-	.	.	2.ryy	.	.
.	8e/	.	.	.	.	.	.	.	.	.	.
8r	8g/J	.	.	.	8G/)	.	.	.	.	.	.
4C/	8c/L	.	.	.	4E/	-stko	.	.	.	.	.
.	8e/	.	.	.	.	.	.	.	.	.	.
8r	8a/J	.	.	.	8A/	we-	.	.	.	.	.
=137	=137	=137	=137	=137	=137	=137	=137	=137	=137	=137	=137
4D\	8B/L	.	2.ryy	.	(>4.G/	-se-	.	.	2.ryy	.	.
.	8d/	.	.	.	.	.	.	.	.	.	.
8r	8g/J	.	.	.	.	.	.	.	.	.	.
4DD/	8c/L	.	.	.	4.F#/	.	.	.	.	.	.
.	8d/	.	.	.	.	.	.	.	.	.	.
8r	8f#/J	.	.	.	.	.	.	.	.	.	.
=138	=138	=138	=138	=138	=138	=138	=138	=138	=138	=138	=138
4GG/	4g 4B/	.	2.ryy	.	4G/)	-li	.	.	2.ryy	.	.
8r	8r	.	.	.	8r	.	.	.	.	.	.
4B 4G 4D\	4.ggg 4.gg^<\	.	.	.	4r	.	.	.	.	.	.
8r	.	.	.	.	8r	.	.	.	.	.	.
=139	=139	=139	=139	=139	=139	=139	=139	=139	=139	=139	=139
4GG/	4bb 4b\	.	2.ryy	.	2.r	.	.	.	2.ryy	.	.
8r	8r	.	.	.	.	.	.	.	.	.	.
4B 4G 4D\	(4.ddd 4.dd^<\	.	.	.	.	.	.	.	.	.	.
8r	.	.	.	.	.	.	.	.	.	.	.
=140	=140	=140	=140	=140	=140	=140	=140	=140	=140	=140	=140
4GG/	4gg 4g\)	.	2.ryy	.	2.r	.	.	.	2.ryy	.	.
8r	8aa 8a\	.	.	.	.	.	.	.	.	.	.
4B 4G 4D\	4bb 4b\	<	.	.	.	.	.	.	.	.	.
8r	8ccc 8cc\	.	.	.	.	.	.	.	.	.	.
=141	=141	=141	=141	=141	=141	=141	=141	=141	=141	=141	=141
4GG/	4ddd 4dd\	.	2.ryy	.	2.r	.	.	.	2.ryy	.	.
8r	8eee 8ee\	.	.	.	.	.	.	.	.	.	.
4B 4G 4D\	4fff# 4ff#\	.	.	.	.	.	.	.	.	.	.
8r	8ggg 8gg\	[	.	.	.	.	.	.	.	.	.
=142	=142	=142	=142	=142	=142	=142	=142	=142	=142	=142	=142
4DD/	4aaa 4aa\	.	2.ryy	.	2.r	.	.	.	2.ryy	.	.
8r	8r	.	.	.	.	.	.	.	.	.	.
4A 4F# 4D\	4.ddd 4.dd\	.	.	.	.	.	.	.	.	.	.
8r	.	.	.	.	.	.	.	.	.	.	.
!!LO:LB:g=original
=143	=143	=143	=143	=143	=143	=143	=143	=143	=143	=143	=143
4DD/	(4.eee 4.ee^<\	.	2.ryy	.	4.e\	Więc	.	.	2.ryy	.	.
8r	.	.	.	.	.	.	.	.	.	.	.
4B 4G#X 4D\	4ddd 4dd\)	<	.	.	4d\	się	.	.	.	.	.
8r	8r	[[	.	.	8d\	speł-	.	.	.	.	.
=144	=144	=144	=144	=144	=144	=144	=144	=144	=144	=144	=144
4DD/	(4.eee 4.ee^<\	.	2.ryy	.	4.e\	-nia-	.	.	2.ryy	.	.
8r	.	.	.	.	.	.	.	.	.	.	.
4c 4A 4D\	4ddd 4dd\)	.	.	.	4.d\	-ją	.	.	.	.	.
8r	8r	.	.	.	.	.	.	.	.	.	.
=145	=145	=145	=145	=145	=145	=145	=145	=145	=145	=145	=145
4DD/	4eee 4ee^<\	.	2.ryy	.	4e\	bło-	.	.	2.ryy	.	.
8r	8ddd 8dd\	>	.	.	8d\	-gich	.	.	.	.	.
4c 4F# 4D\	4ccc 4cc\	.	.	.	4c\	snów	.	.	.	.	.
8r	8aa 8a\	]	.	.	8A/	ma-	.	.	.	.	.
=146	=146	=146	=146	=146	=146	=146	=146	=146	=146	=146	=146
4GG/	4gg 4g\	p	2.ryy	.	4.B\	-rze-	.	.	2.ryy	.	.
8r	8r	.	.	.	.	.	.	.	.	.	.
4B 4G 4D\	(4.ggg 4.gg^\	.	.	.	4G/	-nia	.	.	.	.	.
8r	.	.	.	.	8r	.	.	.	.	.	.
=147	=147	=147	=147	=147	=147	=147	=147	=147	=147	=147	=147
4GG/	4bb 4b\)	.	2.ryy	.	2.r	.	.	.	2.ryy	.	.
8r	8r	.	.	.	.	.	.	.	.	.	.
4B 4G 4D\	4.ddd 4.dd^<\	.	.	.	.	.	.	.	.	.	.
8r	.	.	.	.	.	.	.	.	.	.	.
=148	=148	=148	=148	=148	=148	=148	=148	=148	=148	=148	=148
4GG/	4gg 4g\	.	2.ryy	.	2.r	.	.	.	2.ryy	.	.
8r	8aa 8a\	.	.	.	.	.	.	.	.	.	.
4B 4G 4D\	4bb 4b\	<	.	.	.	.	.	.	.	.	.
8r	8ccc 8cc\	.	.	.	.	.	.	.	.	.	.
=149	=149	=149	=149	=149	=149	=149	=149	=149	=149	=149	=149
4GG/	4ddd 4dd\	.	2.ryy	.	2.r	.	.	.	2.ryy	.	.
8r	8eee 8ee\	.	.	.	.	.	.	.	.	.	.
4B 4G 4D\	4fff# 4ff#\	[	.	.	.	.	.	.	.	.	.
8r	8ggg 8gg\	.	.	.	.	.	.	.	.	.	.
=150	=150	=150	=150	=150	=150	=150	=150	=150	=150	=150	=150
4DD/	4aaa 4aa\	.	2.ryy	.	2.r	.	.	.	2.ryy	.	.
8r	8r	.	.	.	.	.	.	.	.	.	.
4A 4F# 4D\	4.ddd 4.dd\	.	.	.	.	.	.	.	.	.	.
8r	.	.	.	.	.	.	.	.	.	.	.
!!LO:LB:g=original
=151	=151	=151	=151	=151	=151	=151	=151	=151	=151	=151	=151
4DD/	4.eee 4.ee\	.	2.ryy	.	4.e\	Ży-	.	.	2.ryy	.	.
8r	.	.	.	.	.	.	.	.	.	.	.
4B 4G#X 4D\	4ddd 4dd\	.	.	.	4d\	-cia	.	.	.	.	.
8r	8r	.	.	.	8d\	no-	.	.	.	.	.
=152	=152	=152	=152	=152	=152	=152	=152	=152	=152	=152	=152
4DD/	4.eee 4.ee\	.	2.ryy	.	4.e\	-we-	.	.	2.ryy	.	.
8r	.	.	.	.	.	.	.	.	.	.	.
4c 4A 4D\	4ddd 4dd\	.	.	.	4.d\	-go	.	.	.	.	.
8r	8r	.	.	.	.	.	.	.	.	.	.
=153	=153	=153	=153	=153	=153	=153	=153	=153	=153	=153	=153
4DD/	4eee 4ee\	.	2.ryy	.	4e\	blask	.	.	2.ryy	.	.
8r	8ddd 8dd\	.	.	.	8d\	mnie	.	.	.	.	.
4c 4F# 4D\	4ccc 4cc\	.	.	.	4c\	o-	.	.	.	.	.
8r	8aa 8a\	.	.	.	8A/	-pro-	.	.	.	.	.
=154	=154	=154	=154	=154	=154	=154	=154	=154	=154	=154	=154
4GG/	4.bb 4.b\	.	2.ryy	.	4.B\	-mie-	.	.	2.ryy	.	.
8r	.	.	.	.	.	.	.	.	.	.	.
4B 4G 4D\	4gg 4g\	.	.	.	4G/	-nia	.	.	.	.	.
8r	8r	.	.	.	8fn\	Po-	.	.	.	.	.
=155!|:	=155!|:	=155!|:	=155!|:	=155!|:	=155!|:	=155!|:	=155!|:	=155!|:	=155!|:	=155!|:	=155!|:
*>B	*>B	*	*>B	*	*>B	*	*	*	*>B	*	*
4GG/	(8g\L	.	2.ryy	.	[4.fn\	-to-	.	.	2.ryy	.	.
.	8b\	.	.	.	.	.	.	.	.	.	.
8r	8dd\J	.	.	.	.	.	.	.	.	.	.
4d 4G 4F\	8gg\L	.	.	.	4f\]	.	.	.	.	.	.
.	8bb\	.	.	.	.	.	.	.	.	.	.
8r	8ddd\J	.	.	.	8B\	-ki	.	.	.	.	.
=156	=156	=156	=156	=156	=156	=156	=156	=156	=156	=156	=156
4C/	4ccc\)	.	2.ryy	.	(4.d\	wi-	.	.	2.ryy	.	.
8r	8r	.	.	.	.	.	.	.	.	.	.
4c 4G 4E\	4r	.	.	.	4c\)	-na	.	.	.	.	.
8r	8r	.	.	.	8r	.	.	.	.	.	.
=157	=157	=157	=157	=157	=157	=157	=157	=157	=157	=157	=157
4GG/	8g\L	.	2.ryy	.	4fn\	u-	.	.	2.ryy	.	.
.	8b\	.	.	.	.	.	.	.	.	.	.
8r	8dd\J	.	.	.	8B\	-czty	.	.	.	.	.
4d 4G 4F\	8gg\L	.	.	.	4B\	hoj-	.	.	.	.	.
.	8bb\	.	.	.	.	.	.	.	.	.	.
8r	8ddd\J	.	.	.	8B\	-ne	.	.	.	.	.
!!LO:LB:g=original
=158	=158	=158	=158	=158	=158	=158	=158	=158	=158	=158	=158
4C/	4ccc\	.	2.ryy	.	(4.d\	da-	.	.	2.ryy	.	.
8r	8r	.	.	.	.	.	.	.	.	.	.
4c 4G 4E\	4r	.	.	.	4c\)	-ry	.	.	.	.	.
8r	8r	.	.	.	8r	.	.	.	.	.	.
=159	=159	=159	=159	=159	=159	=159	=159	=159	=159	=159	=159
4AA/	(8a\L	.	2.ryy	.	[4.g\	Nie	.	.	2.ryy	.	.
.	8cc#X\	.	.	.	.	.	.	.	.	.	.
8r	8ee\J	.	.	.	.	.	.	.	.	.	.
4c#X 4A 4G\	8aa\L	.	.	.	4g\]	.	.	.	.	.	.
.	8ccc#X\	.	.	.	.	.	.	.	.	.	.
8r	8eee\J)	.	.	.	8c#X\	skąp	.	.	.	.	.
=160	=160	=160	=160	=160	=160	=160	=160	=160	=160	=160	=160
4D\	4ddd\	.	2.ryy	.	4.e\	rę-	.	.	2.ryy	.	.
8r	8r	.	.	.	.	.	.	.	.	.	.
4d 4A 4F#\	4r	.	.	.	4d\	-ki	.	.	.	.	.
8r	8r	.	.	.	8g\	szczo-	.	.	.	.	.
=161	=161	=161	=161	=161	=161	=161	=161	=161	=161	=161	=161
4AA/	(8a\L	.	2.ryy	.	4g\	-dre-	.	.	2.ryy	.	.
.	8cc#X\	.	.	.	.	.	.	.	.	.	.
8r	8ee\J	.	.	.	8c#X\	-mi	.	.	.	.	.
4c#X 4A 4G\	8aa\L	.	.	.	4c#\	darz	.	.	.	.	.
.	8ccc#X\	.	.	.	.	.	.	.	.	.	.
8r	8eee\J)	.	.	.	8c#\	o-	.	.	.	.	.
=162	=162	=162	=162	=162	=162	=162	=162	=162	=162	=162	=162
4D\	(8ddd\L	.	2.ryy	.	(4.e\	-fia-	.	.	2.ryy	.	.
.	8aa\	.	.	.	.	.	.	.	.	.	.
8r	8ff#\J	.	.	.	.	.	.	.	.	.	.
4d 4A 4F#\	8dd\L	.	.	.	4d\)	-ry	.	.	.	.	.
.	8a\	.	.	.	.	.	.	.	.	.	.
8r	8f#\J)	.	.	.	8r	.	.	.	.	.	.
=163	=163	=163	=163	=163	=163	=163	=163	=163	=163	=163	=163
4F#\	(8c/L	.	2.ryy	.	4.d\	W_na-	.	.	2.ryy	.	.
.	8d/	.	.	.	.	.	.	.	.	.	.
8r	8f#/J	.	.	.	.	.	.	.	.	.	.
4D\	8a/L	.	.	.	4A/	-szej	.	.	.	.	.
.	8f#/	.	.	.	.	.	.	.	.	.	.
8r	8d/J)	.	.	.	8A#X/	u-	.	.	.	.	.
!!LO:LB:g=original
=164	=164	=164	=164	=164	=164	=164	=164	=164	=164	=164	=164
4G\	(8B/L	.	2.ryy	.	4.B\	-stro-	.	.	2.ryy	.	.
.	8d/	.	.	.	.	.	.	.	.	.	.
8r	8g/J	.	.	.	.	.	.	.	.	.	.
4D\	8b/L	.	.	.	4.G/	-ni	.	.	.	.	.
.	8g/	.	.	.	.	.	.	.	.	.	.
8r	8d/J)	.	.	.	.	.	.	.	.	.	.
=165	=165	=165	=165	=165	=165	=165	=165	=165	=165	=165	=165
4F#\	(8c/L	.	2.ryy	.	4e\	to-	.	.	2.ryy	.	.
.	8d/	.	.	.	.	.	.	.	.	.	.
8r	8f#/J	.	.	.	8d\	-wa-	.	.	.	.	.
4D\	8a/L	.	.	.	4A/	-rzy-	.	.	.	.	.
.	8f#/	.	.	.	.	.	.	.	.	.	.
8r	8d/J)	.	.	.	8A#X/	-sze	.	.	.	.	.
=166	=166	=166	=166	=166	=166	=166	=166	=166	=166	=166	=166
4G\	(8B/L	.	2.ryy	.	4.B\	dziel-	.	.	2.ryy	.	.
.	8d/	.	.	.	.	.	.	.	.	.	.
8r	8g/J	.	.	.	.	.	.	.	.	.	.
4r	4b/)	.	.	.	4G/	-ni	.	.	.	.	.
8r	8r	.	.	.	8r	.	.	.	.	.	.
=167	=167	=167	=167	=167	=167	=167	=167	=167	=167	=167	=167
!	!	!	!	!	!	!	!	!LO:DY:t=f con passione	!	!	!
8GG/L	4.ggg 4.gg\	f	2.ryy	.	4.g\	Niech	.	f	2.ryy	.	.
8BB-X/	.	.	.	.	.	.	.	.	.	.	.
8E-X/J	.	.	.	.	.	.	.	.	.	.	.
8GG/L	4.ggg 4.gg\	.	.	.	4g\	się	.	.	.	.	.
8BB-/	.	.	.	.	.	.	.	.	.	.	.
8E-/J	.	.	.	.	8g\	tak	.	.	.	.	.
=168	=168	=168	=168	=168	=168	=168	=168	=168	=168	=168	=168
*^	*	*	*	*	*	*	*	*	*	*	*
8C/L	4.AA-X\	[4.aaa-X [4.aa-X^<\	.	2.ryy	.	[4.a-X\	wiel-	.	.	2.ryy	.	.
8Fn/	.	.	.	.	.	.	.	.	.	.	.	.
8A-X/J	.	.	.	.	.	.	.	.	.	.	.	.
8C/L	4.AA-\	4aaa-] 4aa-\]	.	.	.	4a-\]	.	.	.	.	.	.
8F/	.	.	.	.	.	.	.	.	.	.	.	.
8A-/J	.	8fffn 8ffn\	.	.	.	8fn\	-ki	.	.	.	.	.
=169	=169	=169	=169	=169	=169	=169	=169	=169	=169	=169	=169	=169
8D/L	4.BB-X\	4ddd 4dd\	.	2.ryy	.	4d\	dzień	.	.	2.ryy	.	.
8Fn/	.	.	.	.	.	.	.	.	.	.	.	.
8A-X/J	.	8ccc 8cc\	.	.	.	8c\	u-	.	.	.	.	.
8D/L	4.BB-\	4bb-X 4b-X\	.	.	.	4B-X\	-nie-	.	.	.	.	.
8F/	.	.	.	.	.	.	.	.	.	.	.	.
8A-/J	.	8aa-X 8a-X\	.	.	.	8A-X/	-śmier-	.	.	.	.	.
!!LO:PB:g=original
=170	=170	=170	=170	=170	=170	=170	=170	=170	=170	=170	=170	=170
8G/L	4.E-X\	4.aa-X 4.a-X\	.	2.ryy	.	4.A-X/	-tel-	.	.	2.ryy	.	.
8B-X/	.	.	.	.	.	.	.	.	.	.	.	.
8e-X/J	.	.	.	.	.	.	.	.	.	.	.	.
8G/L	4.E-\	4gg 4g\	.	.	.	4G/	-ni	.	.	.	.	.
8B-/	.	.	.	.	.	.	.	.	.	.	.	.
8e-/J	.	8r	.	.	.	8r	.	.	.	.	.	.
=171	=171	=171	=171	=171	=171	=171	=171	=171	=171	=171	=171	=171
*	*	*	*	*	*	*	*above	*	*	*	*	*
!	!	!	!	!	!	!LO:TX:t=P:problem=akolada, rodzielenie tekstu słownego	!	!	!	!	!	!
8E-X/L	4.E-\	4.ggg 4.gg\	.	2.ryy	.	4.g\	1,_Niech	2,_Niech	.	2.ryy	.	.
8G/	.	.	.	.	.	.	.	.	.	.	.	.
8B-X/J	.	.	.	.	.	.	.	.	.	.	.	.
8E-/L	4.E-\	4.ccc#X 4.cc#X\	.	.	.	4c#X\	się	się	.	.	.	.
8G/	.	.	.	.	.	.	.	.	.	.	.	.
8B-/J	.	.	.	.	.	8c#\	tak	tu	.	.	.	.
=172||	=172||	=172||	=172||	=172||	=172||	=172||	=172||	=172||	=172||	=172||	=172||	=172||
!LO:TX:t=1.ma	!	!	!	!	!	!	!	!	!	!	!	!
*>B1	*>B1	*	*	*>B1	*	*>B1	*	*	*	*>B1	*	*
*	*	*	*	*	*	*	*below	*	*	*	*	*
8D/L	4.D\	[4.eeen [>4.een\	.	2.ryy	.	[4.en\	wiel-	.	.	2.ryy	.	.
8G/	.	.	.	.	.	.	.	.	.	.	.	.
8Bn/J	.	.	.	.	.	.	.	.	.	.	.	.
8D/L	4.D\	4eee] 4ee\]	.	.	.	4e\]	.	.	.	.	.	.
8G/	.	.	.	.	.	.	.	.	.	.	.	.
8B/J	.	8ddd 8dd\	.	.	.	8d\	-ki	.	.	.	.	.
=173	=173	=173	=173	=173	=173	=173	=173	=173	=173	=173	=173	=173
8F#/L	4.D\	4ddd 4dd\	.	2.ryy	.	4d\	dzień	.	.	2.ryy	.	.
8A/	.	.	.	.	.	.	.	.	.	.	.	.
8c/J	.	8ccc#X 8cc#X\	.	.	.	8c#X\	u-	.	.	.	.	.
8F#/L	4.D\	4cccn 4ccn\	.	.	.	4cn\	-nie-	.	.	.	.	.
8A/	.	.	.	.	.	.	.	.	.	.	.	.
8c/J	.	8aa 8a\	.	.	.	8A/	-śmier-	.	.	.	.	.
*v	*v	*	*	*	*	*	*	*	*	*	*	*
=174	=174	=174	=174	=174	=174	=174	=174	=174	=174	=174	=174
8G\L	4gg 4g\	.	2.ryy	.	4.G/	-tel-	.	.	2.ryy	.	.
8B\	.	.	.	.	.	.	.	.	.	.	.
8d\J	8r	.	.	.	.	.	.	.	.	.	.
.	.	.	.	.	16qqB/LL	.	.	.	.	.	.
.	.	.	.	.	16qqA/JJ	.	.	.	.	.	.
4G\	4r	.	.	.	4G/	-ni	.	.	.	.	.
8r	8r	.	.	.	8fn\	Po	.	.	.	.	.
!!LO:LB:g=original
=175:|!	=175:|!	=175:|!	=175:|!	=175:|!	=175:|!	=175:|!	=175:|!	=175:|!	=175:|!	=175:|!	=175:|!
!LO:TX:t=2.da	!	!	!	!	!	!	!	!	!	!	!
*>B2	*>B2	*	*>B2	*	*>B2	*	*	*	*>B2	*	*
*^	*	*	*	*	*	*	*	*	*	*	*
8D/L	4.D\	4.eee 4.ee\	.	2.ryy	.	4.e\	wszy-	.	.	2.ryy	.	.
8G/	.	.	.	.	.	.	.	.	.	.	.	.
8Bn/J	.	.	.	.	.	.	.	.	.	.	.	.
8D/L	4.D\	4.ddd 4.dd\	.	.	.	4d\	-stko	.	.	.	.	.
8G/	.	.	.	.	.	.	.	.	.	.	.	.
8B/J	.	.	.	.	.	8d\	we-	.	.	.	.	.
=176	=176	=176	=176	=176	=176	=176	=176	=176	=176	=176	=176	=176
*>C	*>C	*	*	*>C	*	*>C	*	*	*	*>C	*	*
8F#/L	4.D\	(4eee 4ee\	.	2.ryy	.	(4e\	-se-	.	.	2.ryy	.	.
8A/	.	.	.	.	.	.	.	.	.	.	.	.
8c/J	.	8ddd 8dd\)	.	.	.	8d\	.	.	.	.	.	.
8F#/L	4.D\	(4ccc 4cc\	.	.	.	4c\	.	.	.	.	.	.
8A/	.	.	.	.	.	.	.	.	.	.	.	.
8c/J	.	8aa 8a\)	.	.	.	8A/)	.	.	.	.	.	.
*v	*v	*	*	*	*	*	*	*	*	*	*	*
=177	=177	=177	=177	=177	=177	=177	=177	=177	=177	=177	=177
4B 4G\	4gg 4g\	.	2.ryy	.	4G/	-li	.	.	2.ryy	.	.
8r	8r	.	.	.	8r	.	.	.	.	.	.
4D 4AA 4FF# 4DD/	(8ff#\L	.	.	.	4.d^\	Niech	.	.	.	.	.
.	8ee\	.	.	.	.	.	.	.	.	.	.
8r	8ff#\J)	.	.	.	.	.	.	.	.	.	.
=178	=178	=178	=178	=178	=178	=178	=178	=178	=178	=178	=178
4G 4D 4BB 4GG/	(8gg\L	.	2.ryy	.	4.d^\	się	.	.	2.ryy	.	.
.	8ff#\	.	.	.	.	.	.	.	.	.	.
8r	8gg\J)	.	.	.	.	.	.	.	.	.	.
4D 4AA 4FF# 4DD/	(8aa\L	.	.	.	4.d^\	tu	.	.	.	.	.
.	8gg\	.	.	.	.	.	.	.	.	.	.
8r	8aa\J)	.	.	.	.	.	.	.	.	.	.
=179	=179	=179	=179	=179	=179	=179	=179	=179	=179	=179	=179
4G 4D 4BB 4GG/	(8bb\L	.	2.ryy	.	4.d^\	wszy-	.	.	2.ryy	.	.
.	8aa#X\	.	.	.	.	.	.	.	.	.	.
8r	8bb\J)	.	.	.	.	.	.	.	.	.	.
4D 4AA 4FF# 4DD/	(8ff#\L	.	.	.	4d^\	-stko	.	.	.	.	.
.	8ee\	.	.	.	.	.	.	.	.	.	.
8r	8ff#\J)	.	.	.	8d\	we-	.	.	.	.	.
=180	=180	=180	=180	=180	=180	=180	=180	=180	=180	=180	=180
4G 4D 4BB 4GG/	8gg\L	.	2.ryy	.	(4.e\	-se-	.	.	2.ryy	.	.
.	8ff#\	.	.	.	.	.	.	.	.	.	.
8r	8gg\J	.	.	.	.	.	.	.	.	.	.
4D 4AA 4FF# 4DD/	8aa\L	.	.	.	4.d\)	.	.	.	.	.	.
.	8gg\	.	.	.	.	.	.	.	.	.	.
8r	8aa\J	.	.	.	.	.	.	.	.	.	.
!!LO:LB:g=original
=181	=181	=181	=181	=181	=181	=181	=181	=181	=181	=181	=181
4G 4D 4BB 4GG/	8bb\L	.	2.ryy	.	4B\	-li	.	.	2.ryy	.	.
.	8aa#X\	.	.	.	.	.	.	.	.	.	.
8r	8bb\J	.	.	.	8r	.	.	.	.	.	.
4D 4AA 4FF# 4DD/	8ddd\L	.	.	.	4.d^\	Niech	.	.	.	.	.
.	8ccc#X\	.	.	.	.	.	.	.	.	.	.
8r	8eee\J	.	.	.	.	.	.	.	.	.	.
=182	=182	=182	=182	=182	=182	=182	=182	=182	=182	=182	=182
4G 4D 4BB 4GG/	8ddd\L	.	2.ryy	.	4.d^\	się	.	.	2.ryy	.	.
.	8ccc#X\	.	.	.	.	.	.	.	.	.	.
8r	8eee\J	.	.	.	.	.	.	.	.	.	.
4D 4AA 4FF# 4DD/	8ddd\L	.	.	.	4.d^\	tu	.	.	.	.	.
.	8ccc#\	.	.	.	.	.	.	.	.	.	.
8r	8eee\J	.	.	.	.	.	.	.	.	.	.
=183	=183	=183	=183	=183	=183	=183	=183	=183	=183	=183	=183
4G 4D 4BB 4GG/	8ddd\L	.	2.ryy	.	4.d^\	wszy-	.	.	2.ryy	.	.
.	8ccc#X\	.	.	.	.	.	.	.	.	.	.
8r	8eee\J	.	.	.	.	.	.	.	.	.	.
4D 4AA 4FF# 4DD/	8ddd\L	.	.	.	4d^\	-stko	.	.	.	.	.
.	8ccc#\	.	.	.	.	.	.	.	.	.	.
8r	8eee\J	.	.	.	8d\	we-	.	.	.	.	.
=184	=184	=184	=184	=184	=184	=184	=184	=184	=184	=184	=184
4G 4D 4BB 4GG/	8ddd\L	.	2.ryy	.	(4.e^\	-se-	.	.	2.ryy	.	.
.	8eee\	.	.	.	.	.	.	.	.	.	.
8r	8ddd\J	.	.	.	.	.	.	.	.	.	.
4D 4AA 4FF# 4DD/	8cccn\L	.	.	.	4.d\)	.	.	.	.	.	.
.	8bb\	.	.	.	.	.	.	.	.	.	.
8r	8aa\J	.	.	.	.	.	.	.	.	.	.
=185	=185	=185	=185	=185	=185	=185	=185	=185	=185	=185	=185
*^	*	*	*	*	*	*	*	*	*	*	*
!	!	!	!	!	!	!LO:TX:a:i:t=(MONBAR odchodzi a za nim Perez\ni Flibustierowie)	!	!	!	!	!	!
8BB/L	4.GG\	4gg\	.	2.ryy	.	4G/	-li.	.	.	2.ryy	.	.
8D/	.	.	.	.	.	.	.	.	.	.	.	.
8G/J	.	8r	.	.	.	8r	.	.	.	.	.	.
8BB/L	4.GG\	4r	.	.	.	4r	.	.	.	.	.	.
8D/	.	.	.	.	.	.	.	.	.	.	.	.
8G/J	.	8r	.	.	.	8r	.	.	.	.	.	.
=186	=186	=186	=186	=186	=186	=186	=186	=186	=186	=186	=186	=186
8BB/L	4.GG\	4.ggg 4.gg\	ff	2.ryy	.	2.r	.	.	.	2.ryy	.	.
8D/	.	.	.	.	.	.	.	.	.	.	.	.
8G/J	.	.	.	.	.	.	.	.	.	.	.	.
8BB/L	4.GG\	4fff# 4ff#\	.	.	.	.	.	.	.	.	.	.
8D/	.	.	.	.	.	.	.	.	.	.	.	.
8G/J	.	8eee 8ee\	.	.	.	.	.	.	.	.	.	.
!!LO:LB:g=original
=187	=187	=187	=187	=187	=187	=187	=187	=187	=187	=187	=187	=187
8BB/L	4.GG\	(4.eee 4.ee\	.	2.ryy	.	2.ryy	.	.	.	2.ryy	.	.
8D/	.	.	.	.	.	.	.	.	.	.	.	.
8G/J	.	.	.	.	.	.	.	.	.	.	.	.
8BB/L	4.GG\	4.ddd 4.dd\)	.	.	.	.	.	.	.	.	.	.
8D/	.	.	.	.	.	.	.	.	.	.	.	.
8G/J	.	.	.	.	.	.	.	.	.	.	.	.
=188	=188	=188	=188	=188	=188	=188	=188	=188	=188	=188	=188	=188
8C/L	4.GG\	(4eee 4ee\	.	2.ryy	.	2.ryy	.	.	.	2.ryy	.	.
8D/	.	.	.	.	.	.	.	.	.	.	.	.
8F#/J	.	8ddd 8dd\)	.	.	.	.	.	.	.	.	.	.
8C/L	4.GG\	(4ccc 4cc\	.	.	.	.	.	.	.	.	.	.
8D/	.	.	.	.	.	.	.	.	.	.	.	.
8F#/J	.	8aa 8a\)	.	.	.	.	.	.	.	.	.	.
=189	=189	=189	=189	=189	=189	=189	=189	=189	=189	=189	=189	=189
8BB/L	4.GG\	(4.bb 4.b\	.	2.ryy	.	2.ryy	.	.	.	2.ryy	.	.
8D/	.	.	.	.	.	.	.	.	.	.	.	.
8G/J	.	.	.	.	.	.	.	.	.	.	.	.
8BB/L	4.GG\	4gg 4g\)	.	.	.	.	.	.	.	.	.	.
8D/	.	.	.	.	.	.	.	.	.	.	.	.
8G/J	.	8r	.	.	.	.	.	.	.	.	.	.
=190	=190	=190	=190	=190	=190	=190	=190	=190	=190	=190	=190	=190
8BB/L	4.GG\	4.gg 4.g\	.	2.ryy	.	2.ryy	.	.	.	2.ryy	.	.
!	!	!	!LO:HP:t=dimin.	!	!	!	!	!	!	!	!	!
8D/	.	.	>	.	.	.	.	.	.	.	.	.
8G/J	.	.	.	.	.	.	.	.	.	.	.	.
8BB/L	4.GG\	4ff# 4f#\	.	.	.	.	.	.	.	.	.	.
8D/	.	.	.	.	.	.	.	.	.	.	.	.
8G/J	.	8ee 8e\	.	.	.	.	.	.	.	.	.	.
=191	=191	=191	=191	=191	=191	=191	=191	=191	=191	=191	=191	=191
8BB/L	4.GG\	4.ee 4.e/	.	2.ryy	.	2.ryy	.	.	.	2.ryy	.	.
8D/	.	.	.	.	.	.	.	.	.	.	.	.
8G/J	.	.	.	.	.	.	.	.	.	.	.	.
8BB/L	4.GG\	4.dd 4.d/	.	.	.	.	.	.	.	.	.	.
8D/	.	.	.	.	.	.	.	.	.	.	.	.
8G/J	.	.	.	.	.	.	.	.	.	.	.	.
=192	=192	=192	=192	=192	=192	=192	=192	=192	=192	=192	=192	=192
8C/L	4.GG\	(4ee 4e/	.	2.ryy	.	2.ryy	.	.	.	2.ryy	.	.
8D/	.	.	.	.	.	.	.	.	.	.	.	.
8F#/J	.	8dd 8d/)	.	.	.	.	.	.	.	.	.	.
8C/L	4.GG\	(4cc 4c/	.	.	.	.	.	.	.	.	.	.
8D/	.	.	.	.	.	.	.	.	.	.	.	.
8F#/J	.	8a 8A/)	.	.	.	.	.	.	.	.	.	.
=193	=193	=193	=193	=193	=193	=193	=193	=193	=193	=193	=193	=193
4BB/	4GG\	4g 4G/	.	2.ryy	.	2.ryy	.	.	.	2.ryy	.	.
8r	2ryy	8r	.	.	.	.	.	.	.	.	.	.
4r	.	4r	.	.	.	.	.	.	.	.	.	.
8r	.	8r	.	.	.	.	.	.	.	.	.	.
*clefG2	*	*	*	*	*	*	*	*	*	*	*	*
*v	*v	*	*	*	*	*	*	*	*	*	*	*
!!LO:LB:g=original
=194	=194	=194	=194	=194	=194	=194	=194	=194	=194	=194	=194
!	!LO:TX:a:t=Flau	!	!	!	!	!	!	!	!	!	!
(2.cc (>2.f# (2.d/	(4eee\	p	2.ryy	.	2.ryy	.	.	.	2.ryy	.	.
.	8ddd\	.	.	.	.	.	.	.	.	.	.
.	4ccc\	.	.	.	.	.	.	.	.	.	.
.	8aa\	.	.	.	.	.	.	.	.	.	.
=195	=195	=195	=195	=195	=195	=195	=195	=195	=195	=195	=195
4b) 4g/))	4gg\)	.	2.ryy	.	2.ryy	.	.	.	2.ryy	.	.
8r	8r	.	.	.	.	.	.	.	.	.	.
4r	4r	.	.	.	.	.	.	.	.	.	.
8r	8r	.	.	.	.	.	.	.	.	.	.
*clefF4	*	*	*	*	*	*	*	*	*	*	*
=196	=196	=196	=196	=196	=196	=196	=196	=196	=196	=196	=196
*^	*	*	*	*	*	*	*	*	*	*	*
!	!	!LO:TX:a:t=Ob.	!	!	!	!	!	!	!	!	!	!
(2.c (2.F#/	(2.D\	(4ee\	.	2.ryy	.	2.ryy	.	.	.	2.ryy	.	.
.	.	8dd\)	.	.	.	.	.	.	.	.	.	.
.	.	(4cc\	.	.	.	.	.	.	.	.	.	.
.	.	8a/)	.	.	.	.	.	.	.	.	.	.
=197	=197	=197	=197	=197	=197	=197	=197	=197	=197	=197	=197	=197
4B/))	4G\)	4g/	.	2.ryy	.	2.ryy	.	.	.	2.ryy	.	.
8r	8ryy	8r	.	.	.	.	.	.	.	.	.	.
4r	[4.GG^\	4r	.	.	.	.	.	.	.	.	.	.
8r	.	8r	.	.	.	.	.	.	.	.	.	.
=198	=198	=198	=198	=198	=198	=198	=198	=198	=198	=198	=198	=198
!LO:TX:a:t=Cello	!	!	!	!	!	!	!	!	!	!	!	!
4E/	2.GG\_	(>2.f# 2.c/	.	2.ryy	.	2.ryy	.	.	.	2.ryy	.	.
!	!	!LO:TX:b:i:t=poco rallen.:dur=11q:ext=cd:problem:text with extension lines	!	!	!	!	!	!	!	!	!	!
8D/	.	.	.	.	.	.	.	.	.	.	.	.
4C/	.	.	.	.	.	.	.	.	.	.	.	.
8AA/	.	.	.	.	.	.	.	.	.	.	.	.
=199	=199	=199	=199	=199	=199	=199	=199	=199	=199	=199	=199	=199
4GG/	2.GG\_	2.g 2.B/)	.	2.ryy	.	2.ryy	.	.	.	2.ryy	.	.
8r	.	.	.	.	.	.	.	.	.	.	.	.
4r	.	.	.	.	.	.	.	.	.	.	.	.
8r	.	.	.	.	.	.	.	.	.	.	.	.
=200	=200	=200	=200	=200	=200	=200	=200	=200	=200	=200	=200	=200
4E-X/	2.GG\_	(2.f# (2.c/	.	2.ryy	.	2.ryy	.	.	.	2.ryy	.	.
8D/	.	.	.	.	.	.	.	.	.	.	.	.
4C/	.	.	.	.	.	.	.	.	.	.	.	.
8AA/	.	.	.	.	.	.	.	.	.	.	.	.
*v	*v	*	*	*	*	*	*	*	*	*	*	*
=201	=201	=201	=201	=201	=201	=201	=201	=201	=201	=201	=201
4GG/]	4g 4B/))	.	2.ryy	.	2.ryy	.	.	.	2.ryy	.	.
8r	8r	.	.	.	.	.	.	.	.	.	.
4r	4r	.	.	.	.	.	.	.	.	.	.
8r	8r	.	.	.	.	.	.	.	.	.	.
=202	=202	=202	=202	=202	=202	=202	=202	=202	=202	=202	=202
4D 4GG/	4g 4B/	pp	2.ryy	.	2.ryy	.	.	.	2.ryy	.	.
8r	8r	.	.	.	.	.	.	.	.	.	.
4r	4r	.	.	.	.	.	.	.	.	.	.
8r	8r	.	.	.	.	.	.	.	.	.	.
=203	=203	=203	=203	=203	=203	=203	=203	=203	=203	=203	=203
4D 4GG/	4g 4B/	.	2.ryy	.	2.ryy	.	.	.	2.ryy	.	.
8r	8r	.	.	.	.	.	.	.	.	.	.
4r	4r	.	.	.	.	.	.	.	.	.	.
8r;	8r;	.	.	.	.	.	.	.	.	.	.
==	==	==	==	==	==	==	==	==	==	==	==
*-	*-	*-	*-	*-	*-	*-	*-	*-	*-	*-	*-
!!!system-decoration: <vox>{(klav)}
!!!RDF**kern: > = above
!!!RDF**kern: < = below
!!!ENC: Filip Voros
!!!END: 2022-09-12
!!!ENC: Andrzej Kubiczek
!!!END: 2022-10-11
!!!YEC: Copyright 2022 Narodowy Instytut Fryderyka Chopina (https://polishscores.org)
!!!YEM: License CC-BY-4.0 (https://creativecommons.org/licenses/by/4.0)
